brockbladebruno-alt/Brock/joint_angles.csv
frame,lradius_1,lradius_2,lradius_3,rradius_1,rradius_2,rradius_3,rhumerus_1,rhumerus_2,rhumerus_3,lhumerus_1,lhumerus_2,lhumerus_3,rwrist_1,rwrist_2,rwrist_3,lwrist_1,lwrist_2,lwrist_3,lfemur_1,lfemur_2,lfemur_3,rfemur_1,rfemur_2,rfemur_3,rtibia_1,rtibia_2,rtibia_3,ltibia_1,ltibia_2,ltibia_3,rfoot_1,rfoot_2,rfoot_3,lfoot_1,lfoot_2,lfoot_3,root_1,root_2,root_3,rclavicle_1,rclavicle_2,rclavicle_3,lclavicle_1,lclavicle_2,lclavicle_3,lhand_1,lhand_2,lhand_3,rhand_1,rhand_2,rhand_3
1,45.4126,,,61.2508,,,-80.4289,-62.262,29.8064,-44.8817,9.72613,73.6272,-77.0333,,,8.23197,,,-1.12225,-7.17141,-20.1033,-0.654017,5.21274,18.3677,24.6722,,,23.7332,,,-16.4494,-17.0809,,-14.8189,7.66789,,-2.72211,18.1995,6.68313,176.398,-1.71663,-177.812,4.21175e-15,-1.66979e-14,,4.21175e-15,-1.66979e-14,,-7.63576,53.8562,,-18.625,1.57431,
2,45.2869,,,61.1609,,,-79.9743,-62.241,29.2512,-44.9804,9.84046,73.6393,-76.8139,,,8.22166,,,-0.996025,-7.11498,-20.265,-0.699551,5.1994,18.2023,24.8192,,,23.6519,,,-16.4911,-17.1312,,-14.8154,7.71949,,-2.72287,18.1982,6.67942,176.363,-1.61503,-177.943,-6.78353e-15,4.45278e-14,,-6.78353e-15,4.45278e-14,,-7.78926,53.0844,,-18.5711,1.82597,
3,45.2278,,,61.0775,,,-79.7736,-62.4175,28.8869,-44.944,9.89672,73.6826,-76.4344,,,8.2948,,,-0.924801,-7.07155,-20.3225,-0.663799,5.19243,18.1434,24.8737,,,23.6537,,,-16.601,-17.0678,,-14.8273,7.69681,,-2.72383,18.1966,6.68133,176.3,-1.60056,-177.988,2.77056e-15,-3.97569e-15,,2.77056e-15,-3.97569e-15,,-7.82222,52.5186,,-18.6867,2.10567,
4,45.2881,,,61.04,,,-79.4371,-62.3858,28.3563,-45.0836,9.84599,73.7036,-76.2225,,,8.42991,,,-0.885933,-7.09406,-20.4131,-0.658989,5.2462,18.0724,24.9205,,,23.6879,,,-16.6068,-16.9873,,-14.8435,7.76104,,-2.72512,18.1956,6.68504,176.248,-1.54159,-178.053,-3.65267e-15,-1.11319e-14,,-3.65267e-15,-1.11319e-14,,-7.90624,52.4281,,-18.8305,1.72764,
5,45.2567,,,61.0053,,,-78.9888,-62.3098,27.748,-45.207,9.82979,73.7521,-76.0655,,,8.56042,,,-0.878186,-7.01447,-20.2261,-0.653283,5.38172,18.2817,24.925,,,23.7625,,,-16.5546,-17.0651,,-14.8596,7.83644,,-2.72515,18.1948,6.69054,176.191,-1.39203,-177.883,-5.97596e-15,1.51076e-14,,-5.97596e-15,1.51076e-14,,-8.22301,52.0386,,-18.5591,1.29109,
6,45.2136,,,60.9774,,,-79.3447,-62.6487,27.9729,-45.0896,9.89638,73.8071,-75.3916,,,8.55069,,,-0.937288,-7.00271,-20.1179,-0.688528,5.42114,18.3882,24.9024,,,23.8311,,,-16.5038,-17.0403,,-14.8655,7.85648,,-2.72445,18.1934,6.69577,176.195,-1.32104,-177.794,-7.57867e-16,3.49861e-14,,-7.57867e-16,3.49861e-14,,-8.22459,52.0853,,-18.0535,1.23264,
7,45.2789,,,60.9085,,,-80.0772,-63.1252,28.7205,-45.0953,10.0129,73.8365,-74.525,,,8.43612,,,-0.985115,-7.02723,-20.1114,-0.721436,5.35357,18.3745,24.8853,,,23.8896,,,-16.4302,-16.9219,,-14.8835,7.86152,,-2.72305,18.1922,6.69618,176.227,-1.29047,-177.795,1.04113e-14,-3.33958e-14,,1.04113e-14,-3.33958e-14,,-7.95357,52.5694,,-17.6574,1.07984,
8,45.3875,,,60.783,,,-80.1874,-63.2208,28.869,-45.2802,10.0393,73.8557,-74.102,,,8.34683,,,-0.936484,-7.11467,-20.1425,-0.709785,5.2092,18.335,24.9196,,,23.9017,,,-16.4199,-16.768,,-14.9574,7.94676,,-2.72587,18.1911,6.69396,176.213,-1.25717,-177.788,7.85199e-15,-1.51076e-14,,7.85199e-15,-1.51076e-14,,-7.74309,52.9747,,-17.4267,1.19572,
9,45.383,,,60.7411,,,-80.0817,-63.293,28.6676,-45.2638,10.095,73.9104,-73.9124,,,8.19084,,,-0.918479,-7.18714,-20.255,-0.728355,5.02857,18.2014,24.976,,,23.9033,,,-16.4235,-16.5097,,-14.9926,8.02711,,-2.7291,18.1898,6.69331,176.214,-1.24971,-177.856,-4.5969e-15,-7.95139e-16,,-4.5969e-15,-7.95139e-16,,-7.67977,53.3405,,-17.2106,1.58263,
10,45.3548,,,60.7705,,,-80.0507,-63.2323,28.5337,-45.1996,10.0289,73.9972,-73.7946,,,8.06915,,,-0.95854,-7.15032,-20.339,-0.808594,4.93796,18.0774,25.0546,,,23.9217,,,-16.4533,-16.3339,,-14.9803,7.98456,,-2.72923,18.188,6.69687,176.235,-1.24997,-177.944,3.67752e-15,5.56597e-15,,3.67752e-15,5.56597e-15,,-7.49721,53.3096,,-16.9401,1.64944,
11,45.3383,,,60.8242,,,-79.2683,-62.784,27.5899,-45.3543,9.93291,73.9982,-74.0702,,,8.04716,,,-1.0248,-7.0541,-20.2017,-0.934651,4.9705,18.1844,25.1468,,,23.9789,,,-16.4113,-16.3375,,-14.9912,7.94545,,-2.72569,18.185,6.70273,176.263,-1.15138,-177.854,-4.72114e-16,-4.69132e-14,,-4.72114e-16,-4.69132e-14,,-7.39124,52.8445,,-16.7427,1.81041,
12,45.4915,,,60.8679,,,-78.3944,-62.2141,26.6266,-45.7496,9.85444,73.9752,-74.1454,,,8.05877,,,-1.06829,-6.98016,-19.9846,-1.04197,4.9741,18.3741,25.2477,,,24.0443,,,-16.3781,-16.3882,,-15.0057,7.91715,,-2.72296,18.1834,6.70856,176.259,-1.06493,-177.686,5.71506e-16,-3.4191e-14,,5.71506e-16,-3.4191e-14,,-7.41043,52.4691,,-16.3759,2.04614,
13,45.7814,,,60.737,,,-78.7138,-62.356,26.9633,-45.8311,9.77647,74.0454,-73.2171,,,8.20808,,,-1.17766,-6.9804,-19.8767,-1.14251,4.89566,18.4483,25.3324,,,24.1337,,,-16.4126,-16.3897,,-14.9829,7.85077,,-2.72014,18.1833,6.71715,176.272,-1.10023,-177.621,-4.27387e-15,-2.14687e-14,,-4.27387e-15,-2.14687e-14,,-7.49272,52.8784,,-15.5642,2.04084,
14,45.8562,,,60.598,,,-78.9816,-62.3489,27.2997,-46.015,9.74005,74.0189,-72.2248,,,8.19633,,,-1.2771,-7.02913,-19.9499,-1.27965,4.87206,18.3584,25.4331,,,24.1834,,,-16.3801,-16.2716,,-14.9706,7.89503,,-2.71963,18.1832,6.72576,176.322,-1.06115,-177.689,1.59028e-15,-7.95139e-16,,1.59028e-15,-7.95139e-16,,-7.37518,53.3015,,-15.0083,2.12751,
15,45.8161,,,60.6383,,,-79.1062,-62.2914,27.456,-46.1525,9.81955,73.9333,-71.463,,,8.12927,,,-1.31174,-7.01502,-19.908,-1.36906,4.83066,18.3669,25.5034,,,24.2248,,,-16.3658,-16.0571,,-15.0175,7.91763,,-2.71976,18.1775,6.73339,176.337,-0.964729,-177.661,3.32964e-15,-7.15625e-15,,3.32964e-15,-7.15625e-15,,-7.34932,53.174,,-14.6558,2.03842,
16,45.9191,,,60.7269,,,-79.6073,-62.3157,28.074,-46.2847,9.78342,73.956,-70.5859,,,8.11077,,,-1.32358,-7.04719,-19.8582,-1.45814,4.85963,18.3941,25.5706,,,24.245,,,-16.3896,-16.0702,,-15.0657,7.8544,,-2.71747,18.1741,6.74228,176.342,-0.950947,-177.64,4.47266e-16,-4.69132e-14,,4.47266e-16,-4.69132e-14,,-7.25726,53.5132,,-13.77,1.48029,
17,45.9466,,,60.7163,,,-80.0456,-62.2937,28.6755,-46.2907,9.7098,74.0139,-69.7195,,,8.09963,,,-1.34104,-7.0751,-19.7758,-1.54222,5.03142,18.4969,25.6164,,,24.2682,,,-16.3831,-16.1888,,-15.0514,7.93126,,-2.7144,18.1779,6.74982,176.332,-0.831898,-177.572,-5.11871e-15,-2.38542e-15,,-5.11871e-15,-2.38542e-15,,-7.15268,53.6342,,-12.4814,1.0666,
18,45.8167,,,60.8484,,,-79.7586,-62.143,28.3746,-46.1591,9.71612,74.0481,-69.3972,,,8.14491,,,-1.43366,-7.08717,-19.8116,-1.70868,5.08465,18.4462,25.6907,,,24.2495,,,-16.4389,-16.0027,,-15.0315,8.06875,,-2.71268,18.1799,6.75614,176.415,-0.68703,-177.61,-7.33018e-15,9.54166e-15,,-7.33018e-15,9.54166e-15,,-7.20808,53.1249,,-12.0866,1.21129,
19,45.675,,,61.0774,,,-79.117,-61.8751,27.5784,-45.9633,9.75101,74.0394,-69.1146,,,8.18899,,,-1.4618,-7.0737,-19.8191,-1.83292,4.92766,18.3829,25.7727,,,24.2401,,,-16.4187,-15.8835,,-15.1555,8.02861,,-2.71208,18.1768,6.75767,176.483,-0.614446,-177.632,-1.19271e-15,-1.59028e-15,,-1.19271e-15,-1.59028e-15,,-7.11215,52.8655,,-12.1236,1.36231,
20,45.4345,,,61.2217,,,-78.4303,-61.737,26.8623,-45.7006,10.0061,74.0277,-68.5858,,,8.19399,,,-1.5203,-7.04192,-19.9128,-2.03052,4.97014,18.261,25.9029,,,24.222,,,-16.4662,-16.0474,,-15.1247,8.00448,,-2.7091,18.1752,6.76233,176.556,-0.568387,-177.738,4.00054e-15,7.95139e-16,,4.00054e-15,7.95139e-16,,-7.24833,52.8944,,-11.5884,1.55773,
21,45.476,,,61.36,,,-77.6895,-61.5664,26.1445,-45.6087,10.113,74.0945,-68.1394,,,8.28152,,,-1.66272,-6.99673,-19.9285,-2.27352,4.9906,18.1981,26.04,,,24.2076,,,-16.5057,-16.0614,,-15.0233,7.9217,,-2.70417,18.1756,6.77253,176.649,-0.575468,-177.796,-1.73937e-15,1.74931e-14,,-1.73937e-15,1.74931e-14,,-7.39976,52.8389,,-10.9838,1.81905,
22,45.8942,,,61.5444,,,-76.2416,-60.9312,24.6052,-45.8362,9.97545,74.1136,-68.1051,,,8.62791,,,-1.77748,-7.07084,-19.9692,-2.44897,4.88049,18.1224,26.1721,,,24.2105,,,-16.5561,-15.8864,,-14.9797,7.95268,,-2.70254,18.1737,6.7768,176.728,-0.614069,-177.84,-4.87022e-15,7.95139e-15,,-4.87022e-15,7.95139e-15,,-7.49439,53.1829,,-10.6825,2.076,
23,46.3445,,,61.8,,,-74.7335,-60.1344,23.0485,-46.1159,9.86479,74.1556,-67.9808,,,8.82421,,,-1.81209,-7.08925,-20.0106,-2.56933,4.73386,18.0419,26.3088,,,24.1979,,,-16.6266,-15.6716,,-14.9753,8.01163,,-2.69924,18.1738,6.78045,176.751,-0.567891,-177.888,-1.05853e-14,2.70347e-14,,-1.05853e-14,2.70347e-14,,-7.51546,53.7358,,-10.4465,2.06157,
24,46.7,,,62.0907,,,-74.1851,-59.8136,22.5021,-46.1505,9.81075,74.2363,-67.1706,,,8.95984,,,-1.85825,-6.99345,-19.9374,-2.71401,4.7915,18.0843,26.4424,,,24.1638,,,-16.7192,-15.6748,,-14.9838,7.89065,,-2.69292,18.1747,6.79016,176.783,-0.538228,-177.877,-7.30534e-15,2.46493e-14,,-7.30534e-15,2.46493e-14,,-7.80948,53.8457,,-10.0471,1.99733,
25,46.8188,,,62.4422,,,-73.6163,-59.5647,21.9206,-46.1657,9.84668,74.2076,-66.3088,,,8.85388,,,-1.86179,-7.00877,-20.2283,-2.79477,4.72992,17.7692,26.5692,,,24.1107,,,-16.8318,-15.6702,,-14.9611,7.78581,,-2.68911,18.173,6.79356,176.804,-0.609217,-178.164,1.59028e-15,3.26007e-14,,1.59028e-15,3.26007e-14,,-7.93847,53.6735,,-9.42486,2.1153,
26,46.6151,,,62.9113,,,-72.3572,-58.9233,20.6196,-46.2497,9.99409,74.0941,-65.728,,,8.7736,,,-1.89124,-6.95424,-20.3838,-2.91422,4.80959,17.606,26.676,,,24.0553,,,-16.8671,-15.6899,,-14.8711,7.83184,,-2.68564,18.1734,6.79754,176.838,-0.536869,-178.324,1.2921e-15,-1.98785e-14,,1.2921e-15,-1.98785e-14,,-7.91014,53.8195,,-8.98202,2.35686,
27,46.5416,,,63.4726,,,-70.7324,-58.1806,18.9749,-46.3167,10.0974,74.0894,-64.9855,,,8.8508,,,-1.91369,-6.844,-20.3461,-3.04318,4.9029,17.6421,26.7625,,,24.0081,,,-16.8219,-15.7316,,-14.7652,7.9292,,-2.68117,18.1765,6.80588,176.828,-0.393426,-178.312,6.70898e-15,5.56597e-15,,6.70898e-15,5.56597e-15,,-7.73721,53.9251,,-8.92664,2.50133,
28,46.8454,,,64.1943,,,-69.4053,-57.5069,17.6776,-46.6582,10.07,74.1441,-64.0714,,,9.11459,,,-1.90793,-6.90015,-20.3496,-3.12166,4.91565,17.6429,26.8255,,,24.0042,,,-16.9121,-15.6399,,-14.6993,8.06045,,-2.67784,18.1763,6.80833,176.827,-0.266657,-178.31,-7.85199e-15,-1.11319e-14,,-7.85199e-15,-1.11319e-14,,-7.89284,53.9108,,-8.43129,2.44027,
29,46.9278,,,65.0246,,,-68.4487,-56.9321,16.7191,-46.8069,9.98174,74.1657,-63.2009,,,9.27929,,,-1.92413,-6.97336,-20.3205,-3.23563,4.90081,17.6565,26.9055,,,24.0091,,,-16.9456,-15.4612,,-14.6825,8.15261,,-2.67578,18.1746,6.81081,176.864,-0.119016,-178.278,1.21756e-14,-5.1684e-14,,1.21756e-14,-5.1684e-14,,-8.11842,53.8777,,-7.59059,2.55505,
30,46.7763,,,65.9443,,,-67.4979,-56.5696,15.6887,-46.6326,10.0332,74.1573,-62.1353,,,9.33816,,,-1.97149,-6.9017,-20.3778,-3.41719,4.95807,17.5795,27.0184,,,24.001,,,-16.942,-15.3216,,-14.5982,8.28629,,-2.67427,18.1733,6.81532,176.924,0.0921723,-178.33,-1.08835e-14,-2.38542e-14,,-1.08835e-14,-2.38542e-14,,-8.17979,53.546,,-6.67815,2.54551,
31,46.7933,,,67.0035,,,-66.1193,-55.9829,14.0933,-46.6157,10.1157,74.1479,-60.8715,,,9.43324,,,-1.94915,-6.87186,-20.4931,-3.55319,4.92029,17.451,27.15,,,23.9835,,,-16.8748,-15.1998,,-14.6343,8.40342,,-2.67266,18.1696,6.81776,176.946,0.264287,-178.423,7.7526e-15,-7.95139e-16,,7.7526e-15,-7.95139e-16,,-8.22717,52.9977,,-6.01226,2.45195,
32,46.782,,,68.2566,,,-64.4141,-54.9809,11.9985,-46.5991,10.1673,74.0848,-59.8697,,,9.55116,,,-1.9521,-6.93503,-20.5309,-3.7382,4.90111,17.4082,27.3162,,,23.9188,,,-16.8471,-15.1077,,-14.5548,8.56583,,-2.66833,18.1688,6.82303,176.977,0.385378,-178.455,9.54166e-15,-7.39479e-14,,9.54166e-15,-7.39479e-14,,-8.24829,52.9668,,-6.07202,2.83311,
33,46.8247,,,69.6681,,,-62.9919,-54.1978,10.2097,-46.4427,10.1702,74.0663,-58.8834,,,9.70608,,,-2.02507,-7.02651,-20.6467,-3.95286,4.86685,17.2726,27.4778,,,23.8249,,,-16.8698,-15.0089,,-14.39,8.71325,,-2.66371,18.1717,6.82887,177.054,0.463967,-178.568,-8.44835e-15,3.65764e-14,,-8.44835e-15,3.65764e-14,,-8.17635,53.6648,,-5.80551,2.69662,
34,47.0667,,,71.0703,,,-61.6612,-53.7752,8.60191,-46.3498,10.2654,74.0492,-57.5481,,,9.88972,,,-2.04584,-7.02729,-20.8505,-4.14655,4.96683,17.0604,27.6329,,,23.6872,,,-17.0092,-14.9012,,-14.2786,8.84749,,-2.6583,18.1697,6.83239,177.132,0.590133,-178.765,1.88845e-15,1.82882e-14,,1.88845e-15,1.82882e-14,,-8.15115,54.3826,,-5.14583,2.5759,
35,47.2371,,,72.4274,,,-60.5163,-53.4147,7.18388,-46.3991,10.2573,74.0165,-55.8525,,,10.1258,,,-1.96411,-6.93137,-20.949,-4.3261,5.1935,16.9801,27.771,,,23.5196,,,-16.9496,-14.9456,,-14.17,8.99266,,-2.65077,18.1678,6.83845,177.155,0.837511,-178.871,-4.37326e-15,-9.54166e-15,,-4.37326e-15,-9.54166e-15,,-8.05557,54.4091,,-4.86902,2.88772,
36,47.5362,,,73.9368,,,-59.3318,-52.5516,5.68079,-46.876,10.0593,73.9694,-54.3285,,,10.17,,,-1.78352,-6.87989,-21.1806,-4.44848,5.31419,16.7576,27.8926,,,23.341,,,-16.8846,-14.8189,,-14.0941,9.17611,,-2.64598,18.1698,6.84177,177.118,1.11654,-179.072,6.95746e-16,2.14687e-14,,6.95746e-16,2.14687e-14,,-7.97358,53.8656,,-4.50286,2.93011,
37,47.6274,,,75.7116,,,-57.7885,-51.638,3.69274,-46.8499,9.96803,74.079,-53.1941,,,10.0941,,,-1.5902,-6.86827,-21.3241,-4.50085,5.31958,16.6221,27.9984,,,23.1686,,,-16.8241,-14.5996,,-14.0812,9.36656,,-2.64609,18.1706,6.841,177.075,1.37688,-179.171,-3.67752e-15,2.38542e-14,,-3.67752e-15,2.38542e-14,,-8.24634,53.28,,-4.04692,2.84332,
38,47.4807,,,77.4987,,,-56.2111,-50.7394,1.72076,-46.6797,9.89367,74.1664,-51.8259,,,10.1683,,,-1.53225,-6.98058,-21.3314,-4.58963,5.34225,16.6279,28.0743,,,23.0753,,,-16.8719,-14.4086,,-14.1715,9.56109,,-2.64817,18.1707,6.84148,177.115,1.56542,-179.146,7.55382e-15,1.19271e-14,,7.55382e-15,1.19271e-14,,-8.52536,53.3353,,-3.47273,2.36114,
39,47.5515,,,79.2883,,,-54.6473,-50.0158,-0.214738,-46.598,9.84618,74.2504,-50.4064,,,10.5331,,,-1.67006,-7.11191,-21.5046,-4.80435,5.39942,16.4498,28.1459,,,23.0632,,,-16.8978,-14.3283,,-14.2092,9.76012,,-2.64598,18.1715,6.8518,177.231,1.68921,-179.3,-2.33572e-14,9.38264e-14,,-2.33572e-14,9.38264e-14,,-8.63943,53.7363,,-3.25216,1.95463,
40,47.7434,,,80.9627,,,-53.2064,-48.8378,-2.16158,-46.7588,9.70095,74.2575,-49.1119,,,10.7584,,,-1.93012,-7.16319,-21.4482,-5.126,5.45702,16.4781,28.1893,,,23.1292,,,-16.7827,-14.1117,,-14.1606,10.0119,,-2.64348,18.1726,6.87048,177.394,1.97189,-179.257,-6.26172e-15,2.62396e-14,,-6.26172e-15,2.62396e-14,,-8.84778,53.8639,,-3.20986,2.59401,
41,47.8201,,,82.6951,,,-51.6649,-47.4017,-4.24557,-46.8636,9.53262,74.2532,-47.6235,,,10.6932,,,-2.12606,-7.09916,-21.5048,-5.4148,5.67052,16.4098,28.1957,,,23.2676,,,-16.6092,-13.8311,,-14.212,10.3568,,-2.64199,18.1739,6.88291,177.511,2.43539,-179.299,-2.18663e-15,-3.57812e-14,,-2.18663e-15,-3.57812e-14,,-8.85435,54.3446,,-3.16507,3.08694,
42,47.7597,,,84.5841,,,-49.9399,-46.2842,-6.52018,-46.7466,9.49349,74.3311,-45.2992,,,10.4374,,,-2.30057,-7.03641,-21.5492,-5.62812,6.0693,16.3786,28.156,,,23.4424,,,-16.4973,-13.6926,,-14.3125,10.7611,,-2.63911,18.1787,6.88688,177.603,2.96888,-179.332,5.1684e-15,-4.53229e-14,,5.1684e-15,-4.53229e-14,,-8.57767,54.4734,,-3.23049,3.2659,
43,47.773,,,86.5279,,,-48.3102,-45.2298,-8.76806,-46.6029,9.34134,74.4523,-43.0998,,,10.2525,,,-2.43028,-7.02225,-21.3986,-5.84583,6.43686,16.5275,28.2581,,,23.452,,,-16.4249,-13.5815,,-14.3044,10.981,,-2.63387,18.1865,6.89446,177.652,3.44858,-179.226,2.20651e-14,-2.54444e-14,,2.20651e-14,-2.54444e-14,,-8.42995,54.374,,-3.36038,3.40983,
44,47.9885,,,88.4424,,,-46.7071,-44.2202,-10.9949,-46.4425,9.0395,74.6096,-41.5197,,,10.3241,,,-2.46431,-7.17521,-21.4491,-5.97276,6.60344,16.4734,28.3544,,,23.4357,,,-16.4122,-13.4183,,-14.4012,11.1738,,-2.63416,18.192,6.90705,177.63,3.76479,-179.264,1.38155e-14,-3.4191e-14,,1.38155e-14,-3.4191e-14,,-8.46672,54.5235,,-3.33593,3.22901,
45,48.0518,,,90.3233,,,-45.1032,-43.2495,-13.1684,-46.1857,8.93398,74.7767,-39.4555,,,10.2774,,,-2.19695,-6.83726,-21.7809,-6.13128,6.68336,16.1914,28.5147,,,23.396,,,-16.3656,-13.2265,,-14.3464,11.4721,,-2.63336,18.1718,6.92323,177.591,3.97183,-179.504,4.85035e-14,-7.4743e-14,,4.85035e-14,-7.4743e-14,,-8.55667,54.5449,,-3.52239,2.8857,
46,47.7464,,,92.1638,,,-43.7037,-42.1309,-15.2634,-45.7993,8.92185,74.8799,-36.6526,,,10.0423,,,-2.18825,-6.95408,-21.6989,-6.3376,6.85069,16.318,28.7135,,,23.2737,,,-16.3871,-13.1577,,-14.2489,11.8486,,-2.62989,18.1731,6.9354,177.633,4.16018,-179.409,-8.15017e-15,3.02153e-14,,-8.15017e-15,3.02153e-14,,-8.65043,54.513,,-3.29229,2.83102,
47,47.4618,,,93.9069,,,-42.3582,-40.8532,-17.3252,-45.3791,8.81994,75.0599,-33.6357,,,9.8959,,,-2.25823,-6.94885,-21.592,-6.67879,6.98339,16.4051,28.9266,,,23.1682,,,-16.3465,-12.9503,,-14.167,12.1342,,-2.63007,18.1746,6.95041,177.765,4.48183,-179.3,-1.47101e-14,-1.74931e-14,,-1.47101e-14,-1.74931e-14,,-8.69164,54.9331,,-2.36924,2.97408,
48,47.729,,,95.7418,,,-40.8592,-39.217,-19.6655,-45.4459,8.5661,75.2324,-31.1935,,,10.0901,,,-2.45808,-6.81619,-21.9211,-7.03556,6.98445,16.0009,29.0053,,,23.2353,,,-16.208,-12.5646,,-14.2288,12.3745,,-2.63426,18.1747,6.96332,177.912,4.85715,-179.576,1.70955e-14,-4.77083e-14,,1.70955e-14,-4.77083e-14,,-8.67009,55.2345,,-2.91803,2.87211,
49,47.9956,,,97.4062,,,-39.1687,-37.6451,-22.1913,-45.6444,8.41707,75.3885,-28.7208,,,10.1797,,,-2.67409,-6.59264,-21.9508,-7.36572,7.11372,15.9111,29.1026,,,23.2991,,,-16.1335,-12.3154,,-14.2514,12.5867,,-2.63438,18.1764,6.97512,178.041,5.252,-179.615,3.97569e-16,-2.06736e-14,,3.97569e-16,-2.06736e-14,,-8.68132,55.0427,,-5.1197,2.66574,
50,48.1011,,,98.8069,,,-37.5073,-36.2526,-24.68,-45.6019,8.34645,75.5722,-25.8007,,,10.0544,,,-2.90489,-6.47197,-21.7709,-7.77552,7.48256,16.0621,29.2361,,,23.3253,,,-16.0491,-12.2605,,-14.1603,12.8801,,-2.63303,18.1804,6.99252,178.186,5.70596,-179.467,-5.96354e-15,5.88403e-14,,-5.96354e-15,5.88403e-14,,-8.63499,55.2928,,-3.33882,2.90533,
51,48.0909,,,100.18,,,-35.9718,-34.616,-27.113,-45.4231,8.20325,75.8132,-22.8648,,,10.1119,,,-3.1592,-6.36555,-21.8985,-8.14161,7.75844,15.8962,29.3587,,,23.4467,,,-15.9603,-12.09,,-14.0235,13.2903,,-2.63576,18.1833,7.01363,178.254,6.15978,-179.569,2.50469e-14,-4.29375e-14,,2.50469e-14,-4.29375e-14,,-8.48725,55.9038,,-3.02644,2.9861,
52,48.0966,,,101.482,,,-34.3915,-33.024,-29.6469,-45.1455,7.89628,76.1428,-20.1937,,,10.4295,,,-3.46018,-6.19381,-21.9727,-8.57678,7.8254,15.757,29.5426,,,23.5544,,,-15.9251,-11.7296,,-13.7469,13.7564,,-2.63956,18.1834,7.03064,178.394,6.57886,-179.616,-1.98785e-16,-3.73715e-14,,-1.98785e-16,-3.73715e-14,,-8.60786,56.2706,,-3.31098,2.82486,
53,48.2771,,,102.524,,,-32.6278,-31.6711,-32.4272,-44.7346,7.60725,76.4023,-17.5516,,,10.4941,,,-3.77658,-5.90358,-22.0247,-9.18937,7.75762,15.5807,29.7588,,,23.6808,,,-15.8233,-11.2506,,-13.9344,13.8654,,-2.6431,18.1854,7.0478,178.675,7.03683,-179.671,5.56597e-15,-2.14687e-14,,5.56597e-15,-2.14687e-14,,-8.41952,56.5889,,-3.60829,2.71593,
54,48.4413,,,103.346,,,-31.0537,-30.2042,-35.112,-44.1397,7.24141,76.729,-14.484,,,10.3812,,,-4.10796,-5.67394,-22.2459,-9.6521,7.69539,15.2734,29.9452,,,23.9428,,,-15.6964,-10.8827,,-14.0841,14.0328,,-2.64698,18.1826,7.06825,178.825,7.42677,-179.872,2.32578e-14,-6.36111e-15,,2.32578e-14,-6.36111e-15,,-8.61902,55.7443,,-4.21412,2.7998,
55,48.5782,,,103.897,,,-29.1543,-27.9327,-38.0218,-43.7966,7.37382,76.9816,-11.2874,,,10.4808,,,-4.52328,-5.44523,-22.2246,-10.117,7.7645,15.2349,30.1369,,,24.3045,,,-15.5313,-10.6411,,-14.2273,14.2814,,-2.64938,18.1825,7.09108,178.954,7.89031,-179.858,-6.95746e-15,-3.81667e-14,,-6.95746e-15,-3.81667e-14,,-8.67651,55.9453,,-5.34742,2.90708,
56,48.8015,,,104.288,,,-27.561,-25.5836,-40.7242,-43.6292,7.34781,77.2662,-8.20412,,,10.5291,,,-5.04048,-5.24286,-21.9866,-10.7007,7.78389,15.4173,30.3654,,,24.6492,,,-15.276,-10.3596,,-14.4102,14.622,,-2.65277,18.1829,7.12017,179.167,8.39698,-179.645,-6.75868e-15,-3.18055e-14,,-6.75868e-15,-3.18055e-14,,-8.41713,56.18,,-6.82766,3.0107,
57,49.0641,,,104.283,,,-26.0233,-23.5201,-43.3634,-43.3234,7.19065,77.5589,-5.03072,,,10.5886,,,-5.42234,-4.94221,-21.9244,-11.2025,7.74784,15.4029,30.6411,,,24.9728,,,-15.1231,-9.94902,,-14.5683,14.7775,,-2.65558,18.1763,7.14674,179.322,8.84789,-179.602,1.19271e-15,3.33958e-14,,1.19271e-15,3.33958e-14,,-8.09679,56.7286,,-7.88249,3.45981,
58,49.2571,,,104.009,,,-24.7194,-21.4486,-45.7453,-42.8571,6.86677,78.05,-1.82792,,,10.6267,,,-5.74188,-4.70357,-22.0642,-11.6701,7.61668,15.1812,30.9491,,,25.2924,,,-15.0205,-9.59975,,-14.7446,14.9236,,-2.6599,18.1695,7.17167,179.407,9.2077,-179.734,6.95746e-15,1.43125e-14,,6.95746e-15,1.43125e-14,,-8.06556,57.0099,,-8.91358,4.03382,
59,49.4396,,,103.332,,,-23.3729,-18.9598,-48.1658,-42.4922,6.83129,78.466,1.43177,,,10.5868,,,-6.07821,-4.37863,-22.2644,-12.2249,7.41614,14.9062,31.3234,,,25.5599,,,-14.8459,-9.2202,,-14.7184,15.1145,,-2.66803,18.1622,7.1962,179.507,9.61985,-179.909,3.69739e-14,1.43125e-14,,3.69739e-14,1.43125e-14,,-8.27099,56.4588,,-10.5737,4.61645,
60,49.585,,,102.334,,,-22.239,-16.2032,-50.5196,-42.4203,6.67362,78.827,4.42284,,,10.8219,,,-6.38714,-3.97386,-22.2347,-12.8005,7.3399,14.8997,31.7259,,,25.8179,,,-14.6639,-8.84038,,-14.6822,15.3545,,-2.67373,18.1536,7.21746,179.641,10.189,-179.869,-5.36719e-15,-1.59028e-14,,-5.36719e-15,-1.59028e-14,,-8.5864,56.0176,,-12.099,5.23519,
61,49.4448,,,101.013,,,-21.0708,-14.0254,-52.8016,-41.6532,6.15011,79.3168,7.12571,,,11.0826,,,-6.65403,-3.5164,-22.1355,-13.3456,7.25654,14.9755,32.1525,,,26.086,,,-14.4338,-8.18061,,-14.7733,15.5133,,-2.67762,18.1441,7.24092,179.74,10.8047,-179.783,-9.34288e-15,6.36111e-15,,-9.34288e-15,6.36111e-15,,-8.78419,55.8413,,-13.6698,5.72248,
62,49.4559,,,99.212,,,-19.9135,-11.6743,-54.9693,-41.188,5.92991,79.7872,9.61625,,,11.0532,,,-7.09588,-3.11038,-22.3503,-13.9925,7.05008,14.684,32.6048,,,26.3889,,,-14.3376,-7.36195,,-14.6907,15.7531,,-2.68453,18.1367,7.26782,179.873,11.2936,-179.984,1.80894e-14,-4.45278e-14,,1.80894e-14,-4.45278e-14,,-8.86334,55.4284,,-15.2016,6.26356,
63,49.841,,,97.1144,,,-18.9701,-9.49266,-56.9441,-40.932,5.5897,80.2959,11.744,,,11.0361,,,-7.60014,-2.72697,-22.5572,-14.7352,6.75509,14.3893,33.12,,,26.7268,,,-14.314,-7.15934,,-14.706,15.8101,,-2.69188,18.1316,7.29318,180.045,11.6906,-180.193,-9.93923e-16,1.27222e-14,,-9.93923e-16,1.27222e-14,,-9.13443,55.1749,,-16.1526,6.80278,
64,50.1932,,,94.6633,,,-17.9134,-7.65865,-58.8174,-40.403,5.07426,80.8463,13.4225,,,10.9296,,,-8.01677,-2.35126,-22.592,-15.4742,6.56762,14.3107,33.7063,,,27.0909,,,-14.2438,-7.11105,,-14.8026,15.89,,-2.69832,18.1245,7.31987,180.176,12.1395,-180.233,-2.68359e-14,-2.54444e-14,,-2.68359e-14,-2.54444e-14,,-9.21133,55.1811,,-16.7821,7.28374,
65,50.4868,,,91.6734,,,-16.5227,-5.88127,-60.7984,-39.7014,4.72216,81.313,14.8185,,,10.8535,,,-8.44161,-1.89828,-22.5514,-16.1918,6.56016,14.3071,34.3217,,,27.4833,,,-14.2287,-6.7394,,-14.8085,15.9396,,-2.70123,18.1114,7.35991,180.249,12.6025,-180.231,1.35174e-14,-3.89618e-14,,1.35174e-14,-3.89618e-14,,-8.97932,55.5081,,-17.4784,7.84411,
66,50.8055,,,88.3907,,,-15.1566,-3.95709,-62.5939,-39.1289,4.52137,81.8065,15.4193,,,10.885,,,-8.88404,-1.42093,-22.6258,-16.9417,6.65745,14.1672,34.9638,,,27.8571,,,-14.3172,-6.34325,,-14.786,15.9547,,-2.70094,18.0982,7.4026,180.3,13.0973,-180.352,-2.5842e-15,-1.74931e-14,,-2.5842e-15,-1.74931e-14,,-8.67496,55.8734,,-18.2329,8.22366,
67,50.9175,,,85.0147,,,-14.0215,-2.20492,-64.1242,-38.4491,4.06342,82.3924,15.477,,,10.6839,,,-9.24489,-0.968679,-22.7617,-17.6036,6.59095,13.9811,35.5909,,,28.2081,,,-14.4203,-5.97602,,-14.895,15.9019,,-2.70168,18.0864,7.43375,180.342,13.5214,-180.514,-3.57812e-15,3.10104e-14,,-3.57812e-15,3.10104e-14,,-8.46718,55.7895,,-19.2203,8.28933,
68,50.8658,,,81.2635,,,-12.6537,-1.08395,-65.6654,-37.3625,3.16612,83.0461,15.5939,,,10.4588,,,-9.6038,-0.571461,-23.0548,-18.2695,6.39622,13.6281,36.1693,,,28.5387,,,-14.3979,-5.55893,,-14.9892,15.8644,,-2.70658,18.0757,7.45783,180.401,13.8543,-180.798,1.59028e-15,2.8625e-14,,1.59028e-15,2.8625e-14,,-8.2853,55.817,,-20.2071,8.55932,
69,51.0455,,,76.9734,,,-11.0019,0.272141,-67.2486,-36.7352,2.81825,83.5648,15.6472,,,10.5616,,,-10.0065,-0.114305,-23.1888,-18.8712,6.18074,13.4322,36.651,,,28.911,,,-14.3875,-5.20454,,-15.0032,15.6634,,-2.70954,18.0687,7.48838,180.46,14.1111,-180.962,1.98785e-14,2.3059e-14,,1.98785e-14,2.3059e-14,,-8.30527,56.0178,,-20.7785,9.9326,
70,51.3876,,,72.4943,,,-9.26099,1.00782,-68.6366,-35.941,2.14776,84.1585,15.9228,,,10.885,,,-10.559,0.252349,-23.0879,-19.4852,6.09758,13.4729,37.0524,,,29.3648,,,-14.3419,-4.92104,,-14.92,15.5257,,-2.711,18.0604,7.53434,180.593,14.3442,-180.92,-7.95139e-16,-8.74653e-15,,-7.95139e-16,-8.74653e-15,,-8.77155,55.5949,,-21.3556,12.0031,
71,51.4652,,,68.378,,,-7.77757,1.6491,-69.6561,-35.0173,1.19204,84.9302,16.3159,,,11.0605,,,-11.025,0.509686,-22.9172,-19.9449,6.05087,13.6108,37.3874,,,29.8856,,,-14.2653,-4.62305,,-14.9692,15.5496,,-2.71286,18.0476,7.5748,180.655,14.6422,-180.799,7.55382e-15,-1.51076e-14,,7.55382e-15,-1.51076e-14,,-9.36776,54.5039,,-22.1292,12.8878,
72,51.3759,,,64.4718,,,-6.34238,2.37012,-70.4805,-34.0585,0.297275,85.8079,16.6443,,,11.1946,,,-11.4264,0.755576,-22.8543,-20.2512,6.01737,13.6508,37.6483,,,30.4398,,,-14.2908,-4.29198,,-15.0192,15.6144,,-2.71383,18.0349,7.60422,180.66,14.9368,-180.764,3.57812e-15,-4.77083e-14,,3.57812e-15,-4.77083e-14,,-10.1391,53.8174,,-22.4257,12.9448,
73,51.5691,,,60.6649,,,-5.4403,2.63213,-71.3037,-33.6444,-1.14641,86.6602,16.9029,,,11.6382,,,-11.8971,1.00408,-23.1322,-20.5789,5.89085,13.341,37.8557,,,30.983,,,-14.2444,-3.96642,,-15.0897,15.6207,,-2.7108,18.0235,7.63669,180.65,15.1413,-181.053,-1.43125e-14,6.36111e-15,,-1.43125e-14,6.36111e-15,,-10.8317,54.0234,,-21.9124,13.2562,
74,51.6192,,,56.9296,,,-4.06097,2.36753,-72.057,-32.784,-2.55295,87.4681,17.9618,,,11.9463,,,-12.4462,1.22593,-23.1843,-20.9578,5.71345,13.2523,38.0313,,,31.4971,,,-14.1386,-3.62001,,-15.2352,15.5566,,-2.70693,18.0137,7.66813,180.776,15.2533,-181.134,-7.43455e-14,9.54166e-15,,-7.43455e-14,9.54166e-15,,-11.2666,53.9295,,-20.2696,13.7205,
75,51.6251,,,53.1203,,,-2.51165,1.89212,-72.7355,-31.7233,-3.89107,88.2406,18.3846,,,12.0623,,,-12.963,1.39999,-23.035,-21.3094,5.63031,13.3627,38.2171,,,31.9683,,,-14.0654,-3.47615,,-15.3745,15.4337,,-2.70171,18.0033,7.70203,180.92,15.2804,-181.05,-4.13472e-14,-5.08889e-14,,-4.13472e-14,-5.08889e-14,,-11.713,53.7254,,-18.1345,14.0081,
76,51.3736,,,49.4047,,,-0.87704,1.33989,-73.3208,-30.4184,-5.3277,89.0128,17.9105,,,12.2247,,,-13.4216,1.61479,-22.9609,-21.6375,5.72989,13.4009,38.4042,,,32.4369,,,-14.0887,-3.50057,,-15.4137,15.3456,,-2.69167,17.9867,7.74099,180.986,15.388,-181.051,-4.21423e-14,4.6118e-14,,-4.21423e-14,4.6118e-14,,-12.536,53.2945,,-16.3859,13.7883,
77,50.9579,,,46.0472,,,0.663754,1.02669,-73.68,-28.8194,-6.79018,89.6936,16.3571,,,12.5482,,,-14.026,1.91005,-23.152,-22.0969,5.91305,13.1382,38.5849,,,32.9398,,,-14.2673,-3.46497,,-15.337,15.2592,,-2.67894,17.9694,7.77989,181.113,15.5099,-181.29,1.27222e-14,4.13472e-14,,1.27222e-14,4.13472e-14,,-12.8153,53.4868,,-14.8658,13.0865,
78,50.8023,,,43.4456,,,1.71559,0.95331,-73.8539,-27.3421,-7.90613,90.3071,14.0074,,,12.2696,,,-14.7294,2.00776,-23.1784,-22.5092,5.9802,13.0145,38.7449,,,33.4456,,,-14.5483,-3.49589,,-15.3509,15.011,,-2.66437,17.96,7.82096,181.307,15.364,-181.409,2.06736e-14,-6.36111e-15,,2.06736e-14,-6.36111e-15,,-11.9994,54.639,,-13.1024,11.4681,
79,50.5535,,,41.3154,,,2.28153,0.909235,-73.9327,-26.2586,-9.22897,91.0929,11.3964,,,12.7894,,,-15.4518,2.13097,-22.7366,-22.9093,6.05138,13.3718,38.8867,,,33.9163,,,-14.5561,-3.75293,,-15.4024,14.6511,,-2.64352,17.9493,7.86158,181.62,15.1383,-181.129,-7.95139e-16,-1.27222e-14,,-7.95139e-16,-1.27222e-14,,-13.3483,53.7243,,-11.0382,9.24449,
80,50.2988,,,39.0019,,,2.81761,0.548616,-74.0951,-25.1133,-10.3228,91.6962,9.41471,,,11.9882,,,-16.041,2.32347,-22.3963,-23.2801,6.11738,13.6345,39.0436,,,34.32,,,-14.4213,-3.90261,,-15.4937,14.269,,-2.62114,17.9337,7.89155,181.904,14.9628,-180.926,1.35174e-14,7.63333e-14,,1.35174e-14,7.63333e-14,,-12.552,54.2243,,-8.56188,7.3009,
81,49.9644,,,36.923,,,3.43246,0.174985,-74.3988,-23.8487,-11.1165,92.1355,8.14487,,,11.4014,,,-16.5447,2.44807,-22.4998,-23.6437,6.018,13.4487,39.257,,,34.6501,,,-14.4299,-3.85836,,-15.423,13.9797,,-2.59831,17.9247,7.91522,182.09,14.6892,-181.117,-1.82882e-14,-1.59028e-15,,-1.82882e-14,-1.59028e-15,,-11.9502,54.3039,,-5.43005,5.25504,
82,49.8843,,,35.4132,,,3.59019,-0.203873,-74.7518,-22.8688,-11.7248,92.5131,7.78753,,,11.1489,,,-17.1572,2.43086,-22.7855,-24.1886,5.98147,13.0686,39.533,,,34.858,,,-14.4786,-3.83108,,-15.0949,13.8399,,-2.57332,17.9205,7.94408,182.328,14.4216,-181.479,-3.97569e-15,4.45278e-14,,-3.97569e-15,4.45278e-14,,-11.7896,53.9945,,-1.70418,3.06109,
83,49.8399,,,33.7629,,,4.71025,-1.8317,-75.225,-20.6825,-12.8587,92.6537,8.92644,,,11.268,,,-17.7992,2.38294,-22.7178,-24.7722,5.98144,13.0321,39.8134,,,34.9665,,,-14.4972,-4.01045,,-14.8487,13.5554,,-2.54412,17.9159,7.97373,182.679,14.0642,-181.545,-1.74931e-14,-2.22639e-14,,-1.74931e-14,-2.22639e-14,,-11.738,53.4156,,1.3573,2.19288,
84,50.0832,,,32.7581,,,4.53033,-2.40062,-75.7137,-19.75,-13.2171,92.8684,10.0707,,,11.1156,,,-18.2663,2.26235,-22.5733,-25.1095,5.68921,13.1176,40.0613,,,35.0554,,,-14.6206,-4.29836,,-14.8178,13.048,,-2.51341,17.9145,7.99273,182.966,13.4741,-181.55,-6.36111e-15,-2.54444e-14,,-6.36111e-15,-2.54444e-14,,-11.7454,52.654,,2.60405,3.01311,
85,50.4946,,,32.4254,,,3.53034,-2.29915,-76.0097,-19.4025,-13.2635,93.233,11.0936,,,10.6493,,,-18.6822,2.14757,-22.5001,-25.4682,5.29755,13.1846,40.2781,,,35.0898,,,-14.6729,-4.63508,,-14.773,12.6315,,-2.48212,17.9191,8.0041,183.268,12.9585,-181.598,1.98785e-14,-2.06736e-14,,1.98785e-14,-2.06736e-14,,-11.5711,52.1558,,2.11484,4.8175,
86,50.7805,,,32.2087,,,2.66556,-2.40525,-76.3025,-18.8151,-13.5863,93.6554,12.8084,,,11.0324,,,-19.2201,2.07564,-22.32,-26.0251,5.10797,13.3553,40.469,,,35.0478,,,-14.6041,-5.03398,,-14.5729,12.4018,,-2.44558,17.9199,8.02443,183.689,12.6104,-181.559,1.98785e-14,3.65764e-14,,1.98785e-14,3.65764e-14,,-12.267,51.5341,,0.825709,6.14719,
87,51.1804,,,32.4118,,,1.41285,-2.43948,-76.4833,-18.5261,-13.8771,94.1988,14.8279,,,11.1653,,,-19.6551,1.98968,-22.4028,-26.5004,4.97657,13.2608,40.6535,,,34.9459,,,-14.5658,-5.44851,,-14.4572,12.14,,-2.40361,17.9224,8.03939,184.004,12.2534,-181.78,2.8625e-14,-2.8625e-14,,2.8625e-14,-2.8625e-14,,-12.2135,52.0358,,-0.0634018,6.37284,
88,51.73,,,32.7642,,,0.393272,-2.10724,-76.8758,-18.2802,-13.7333,94.5512,16.4364,,,11.2753,,,-19.8178,1.88051,-22.4898,-26.6975,4.75536,13.1861,40.8085,,,34.8122,,,-14.6551,-5.86492,,-14.4853,11.836,,-2.36251,17.9301,8.0429,184.155,11.8527,-182.004,1.11319e-14,2.06736e-14,,1.11319e-14,2.06736e-14,,-12.098,52.8255,,-1.22426,7.02468,
89,52.1817,,,33.212,,,-0.524169,-2.05163,-77.2475,-17.8076,-14.0078,94.8703,17.5976,,,11.7801,,,-19.9823,1.73898,-22.3082,-26.8843,4.50609,13.3743,40.9695,,,34.5816,,,-14.766,-6.25084,,-14.343,11.4937,,-2.32225,17.9357,8.05339,184.361,11.3455,-181.988,-7.15625e-15,-8.90555e-14,,-7.15625e-15,-8.90555e-14,,-12.4817,53.4762,,-2.84242,7.83519,
90,52.6031,,,34.0985,,,-1.78824,-1.94235,-77.5568,-17.3873,-14.3914,95.2025,18.5537,,,12.4222,,,-20.1639,1.47594,-22.1558,-27.0838,4.2708,13.5071,41.1078,,,34.2735,,,-14.8394,-6.65144,,-14.1823,11.1346,,-2.27924,17.9439,8.06978,184.578,10.7456,-182.02,-1.19271e-14,-5.88403e-14,,-1.19271e-14,-5.88403e-14,,-13.2307,53.8269,,-4.07408,7.88135,
91,53.2283,,,35.3709,,,-3.50635,-1.43128,-77.8243,-17.3567,-14.5666,95.5845,19.2009,,,12.9178,,,-20.2398,1.18166,-22.4392,-27.1991,4.09166,13.1927,41.1759,,,33.959,,,-14.9312,-6.93995,,-14.1308,10.8778,,-2.23385,17.9503,8.07797,184.673,10.2621,-182.45,-9.54166e-15,-6.36111e-15,,-9.54166e-15,-6.36111e-15,,-13.9511,53.7189,,-5.29462,7.9756,
92,53.844,,,36.3869,,,-4.58284,-0.960268,-78.102,-16.9535,-14.7446,95.8907,19.34,,,13.3351,,,-20.2662,0.770536,-22.7348,-27.2752,3.95708,12.869,41.1287,,,33.6261,,,-14.8966,-7.27292,,-13.9647,10.8173,,-2.18733,17.9557,8.08411,184.769,9.82775,-182.891,-1.90833e-14,1.74931e-14,,-1.90833e-14,1.74931e-14,,-14.5323,53.8853,,-7.00243,8.70391,
93,54.807,,,37.0379,,,-5.53595,-0.620539,-78.4836,-16.5983,-14.6313,95.9911,19.1289,,,15.2405,,,-20.2964,0.481811,-22.3329,-27.2843,3.93231,13.2584,40.9386,,,33.3072,,,-14.8275,-7.63971,,-13.7733,10.7721,,-2.1421,17.969,8.08382,184.996,9.47223,-182.684,1.51076e-14,1.59028e-14,,1.51076e-14,1.59028e-14,,-13.9104,55.2434,,-8.38316,8.88734,
94,55.1162,,,37.5596,,,-6.80109,-0.291134,-78.7863,-16.7422,-14.8828,96.3489,18.7308,,,14.5728,,,-20.1794,0.373111,-21.7263,-27.0762,4.00153,13.8609,40.6523,,,33.0244,,,-14.8514,-7.86598,,-13.5438,10.7054,,-2.09808,17.9862,8.07868,185.118,9.19728,-182.278,5.56597e-15,-4.77083e-15,,5.56597e-15,-4.77083e-15,,-14.6702,54.8926,,-9.59886,8.63536,
95,56.0379,,,38.5002,,,-8.38931,0.089247,-79.049,-16.8939,-14.8007,96.6492,17.8678,,,15.2581,,,-20.175,0.162069,-21.4436,-27.0181,3.93611,14.1075,40.3741,,,32.7851,,,-14.7357,-7.96816,,-13.2913,10.4827,,-2.0524,17.9934,8.08163,185.247,8.74973,-182.197,1.51076e-14,-1.59028e-15,,1.51076e-14,-1.59028e-15,,-14.5835,55.7952,,-10.9276,8.53327,
96,56.6183,,,39.2968,,,-9.46754,0.156574,-79.2813,-16.5794,-15.0789,96.9047,16.9805,,,15.6613,,,-20.1606,-0.131345,-21.4344,-27.0652,3.88221,14.0731,40.18,,,32.5252,,,-14.6666,-7.93699,,-13.1856,10.4064,,-2.00866,17.9967,8.07994,185.393,8.46556,-182.349,0.0,9.54166e-15,,0.0,9.54166e-15,,-14.7598,56.0718,,-12.4128,8.8129,
97,56.5759,,,40.4853,,,-10.0471,0.177086,-79.4634,-15.9365,-15.6491,97.1102,15.0563,,,17.3047,,,-19.996,-0.345662,-21.2367,-26.9325,3.95314,14.2644,40.0786,,,32.226,,,-14.8664,-7.9016,,-13.1126,10.5699,,-1.96522,18.0039,8.07397,185.473,8.46748,-182.317,-3.18055e-15,1.11319e-14,,-3.18055e-15,1.11319e-14,,-17.5239,51.1035,,-12.2447,7.72017,
98,58.2733,,,41.387,,,-11.9247,0.355649,-79.688,-16.56,-15.2654,97.338,14.1218,,,15.2571,,,-19.8302,-0.599591,-20.9205,-26.8195,4.03258,14.571,40.0002,,,31.8869,,,-14.9531,-8.0231,,-13.0771,10.7371,,-1.9207,18.0137,8.07272,185.55,8.44898,-182.197,-2.06736e-14,-1.25632e-13,,-2.06736e-14,-1.25632e-13,,-14.5514,58.2121,,-13.075,7.68186,
99,59.4503,,,42.047,,,-13.3592,0.462712,-79.7636,-16.8488,-15.1435,97.6144,12.7108,,,14.2306,,,-19.7092,-0.787904,-20.7905,-26.8206,4.04712,14.6722,39.8834,,,31.5205,,,-14.972,-8.04376,,-13.0206,10.8463,,-1.87683,18.0291,8.06304,185.677,8.41986,-182.23,-7.15625e-15,-3.18055e-14,,-7.15625e-15,-3.18055e-14,,-14.1531,59.9481,,-13.992,8.7051,
100,60.4565,,,42.6136,,,-14.5533,0.520037,-79.8257,-16.8578,-15.117,97.886,10.8885,,,12.9931,,,-19.4411,-0.986888,-20.7792,-26.7409,4.04416,14.6711,39.7344,,,31.1402,,,-15.0482,-7.8269,,-13.0563,11.1869,,-1.83959,18.0416,8.04287,185.748,8.60412,-182.332,-6.36111e-15,3.81667e-14,,-6.36111e-15,3.81667e-14,,-14.7213,60.4358,,-14.8454,10.3302,
101,61.6117,,,44.0374,,,-15.7061,0.515091,-79.9545,-16.9947,-14.9747,98.0675,7.97425,,,11.2742,,,-19.1727,-1.19871,-20.6377,-26.625,4.14192,14.7942,39.526,,,30.7803,,,-15.0298,-7.66505,,-13.0704,11.5935,,-1.80567,18.0547,8.02739,185.797,8.85797,-182.313,-1.98785e-14,-1.59028e-14,,-1.98785e-14,-1.59028e-14,,-16.0215,60.4573,,-13.392,8.55485,
102,62.864,,,44.6811,,,-16.4905,0.0809657,-80.0648,-16.8332,-14.8583,98.0077,6.90209,,,9.83305,,,-19.0353,-1.34718,-20.5111,-26.5857,4.259,14.898,39.3148,,,30.508,,,-14.9954,-7.5024,,-12.9442,11.9071,,-1.76744,18.0658,8.01947,185.856,9.10562,-182.334,-1.11319e-14,-2.46493e-14,,-1.11319e-14,-2.46493e-14,,-17.5122,60.7126,,-12.7225,8.02382,
103,64.0278,,,45.3093,,,-17.4459,-0.299223,-80.153,-16.7718,-14.8497,97.9299,6.01799,,,9.02153,,,-18.9709,-1.47677,-20.2785,-26.6285,4.49541,15.0843,39.0901,,,30.318,,,-14.9288,-7.3256,,-12.8145,12.2749,,-1.72876,18.0764,8.01455,185.957,9.47969,-182.271,3.18055e-14,7.15625e-15,,3.18055e-14,7.15625e-15,,-19.1439,61.164,,-11.8584,7.89882,
104,65.1377,,,46.5087,,,-18.4418,-0.604383,-80.2618,-16.6809,-14.8869,97.8206,4.74774,,,7.87473,,,-19.0358,-1.60363,-19.9804,-26.7709,4.59782,15.344,38.8812,,,30.1404,,,-14.8237,-7.06709,,-12.5895,12.7087,,-1.69396,18.0833,8.01349,186.176,9.81022,-182.124,-2.38542e-15,0.0,,-2.38542e-15,0.0,,-20.5139,61.6132,,-10.2843,6.63412,
105,66.5929,,,47.5484,,,-19.8627,-0.13511,-80.2595,-17.3339,-14.034,97.989,3.5583,,,6.27203,,,-19.1186,-1.86569,-19.727,-26.9005,4.56448,15.5447,38.6712,,,29.9771,,,-14.7889,-6.79125,,-12.4957,13.0822,,-1.6607,18.0876,8.00483,186.451,10.0027,-182.014,-2.54444e-14,-5.40694e-14,,-2.54444e-14,-5.40694e-14,,-20.0416,63.023,,-9.30582,6.28305,
106,68.1141,,,48.1236,,,-21.1849,0.3828,-80.2608,-17.9365,-13.2182,98.146,2.52069,,,4.75827,,,-18.9821,-2.15488,-19.6317,-26.9136,4.50288,15.6019,38.4674,,,29.8186,,,-14.6165,-6.4708,,-12.8157,13.4237,,-1.62707,18.0921,7.98808,186.57,10.3379,-182.056,-5.56597e-15,7.95139e-15,,-5.56597e-15,7.95139e-15,,-18.5399,63.889,,-9.16729,6.26094,
107,69.4715,,,48.0401,,,-22.2505,0.398477,-80.2944,-18.1551,-12.611,98.0427,2.80821,,,3.04125,,,-18.8569,-2.43033,-19.4507,-26.9317,4.54215,15.7405,38.2869,,,29.6725,,,-14.484,-6.05181,,-13.0478,13.857,,-1.59643,18.0986,7.97884,186.643,10.7482,-182.017,4.57205e-14,3.57812e-14,,4.57205e-14,3.57812e-14,,-18.5557,67.0259,,-10.0372,7.37796,
108,70.5813,,,48.5139,,,-23.0962,0.41218,-80.3216,-17.9862,-12.0807,97.8244,2.81245,,,1.54557,,,-18.9507,-2.59864,-19.2083,-27.0873,4.70113,15.9063,38.1135,,,29.6074,,,-14.4394,-5.82437,,-13.2154,14.1508,,-1.56834,18.1061,7.97763,186.851,11.0841,-181.916,-4.73108e-14,-5.56597e-14,,-4.73108e-14,-5.56597e-14,,-19.2387,67.8598,,-9.96672,6.97707,
109,71.7562,,,49.2542,,,-24.0018,0.778478,-80.3758,-17.8742,-11.481,97.5485,2.68636,,,0.658551,,,-19.2231,-2.57027,-19.1684,-27.2861,4.71469,15.9015,37.9378,,,29.7093,,,-14.3726,-5.50817,,-13.2417,14.345,,-1.54036,18.1095,7.98073,187.069,11.3787,-181.975,-1.94809e-14,-4.29375e-14,,-1.94809e-14,-4.29375e-14,,-20.118,69.2091,,-9.73993,6.64757,
110,72.9664,,,49.7876,,,-24.934,1.0272,-80.4539,-18.0146,-10.8963,97.3278,2.91053,,,0.13055,,,-19.5229,-2.37474,-18.8852,-27.4389,4.85873,16.1573,37.7847,,,29.9175,,,-14.2235,-5.24559,,-13.1786,14.5435,,-1.50686,18.1105,7.98467,187.249,11.7725,-181.817,2.78299e-15,4.69132e-14,,2.78299e-15,4.69132e-14,,-21.723,69.7731,,-9.74095,7.05548,
111,74.616,,,50.3279,,,-25.7291,1.29645,-80.5008,-18.2035,-9.97611,97.1186,3.12499,,,-2.00605,,,-19.8191,-2.10214,-18.414,-27.6058,5.20014,16.582,37.6429,,,30.1803,,,-14.0586,-5.02693,,-13.225,14.7023,,-1.47277,18.1089,7.98595,187.471,12.1985,-181.486,-3.22031e-14,1.27222e-14,,-3.22031e-14,1.27222e-14,,-21.6347,67.119,,-9.72087,7.14596,
112,76.388,,,50.9637,,,-26.5666,1.71081,-80.4915,-18.6386,-8.69745,96.9134,3.16513,,,-4.11944,,,-20.1022,-1.81721,-18.1518,-27.8276,5.3954,16.8009,37.5258,,,30.437,,,-13.9762,-4.61266,,-13.3851,14.7776,,-1.44381,18.1047,7.98659,187.716,12.6358,-181.326,-1.15295e-14,4.53229e-14,,-1.15295e-14,4.53229e-14,,-25.6501,75.6685,,-9.65013,6.89157,
113,78.111,,,51.8366,,,-27.9993,2.46644,-80.4011,-19.2937,-6.72776,96.629,3.19083,,,-5.6653,,,-20.2993,-1.59681,-17.8817,-27.9921,5.55838,17.0313,37.4285,,,30.6512,,,-14.008,-4.1734,,-13.5474,14.9439,,-1.42012,18.1026,7.99219,187.906,13.0473,-181.139,1.63003e-14,1.27222e-14,,1.63003e-14,1.27222e-14,,-25.9986,79.9437,,-9.61871,6.9376,
114,80.5097,,,52.6791,,,-28.711,2.51321,-80.2939,-19.5215,-4.92197,96.2056,3.17878,,,-6.41167,,,-20.3249,-1.33248,-17.6789,-28.1088,5.87358,17.215,37.3672,,,30.7898,,,-13.985,-3.80337,,-13.7837,15.2131,,-1.39352,18.1019,7.99733,187.988,13.603,-180.998,4.37326e-15,3.37934e-14,,4.37326e-15,3.37934e-14,,-24.3493,81.2446,,-9.79035,7.14812,
115,83.1474,,,53.0297,,,-29.416,2.74154,-80.2809,-20.1389,-2.9411,95.5155,3.32992,,,-5.79619,,,-20.2819,-0.996271,-17.5919,-28.1979,6.18596,17.2978,37.286,,,30.9326,,,-13.8698,-3.31396,,-13.9674,15.4592,,-1.36875,18.0972,7.99631,188.031,14.2779,-180.943,-1.86858e-14,1.59028e-14,,-1.86858e-14,1.59028e-14,,-21.8584,82.1087,,-10.1119,7.64711,
116,85.2208,,,53.1493,,,-29.8276,3.06585,-80.3667,-20.5117,-1.64626,94.6684,3.47642,,,-4.95098,,,-20.262,-0.665524,-17.4603,-28.2166,6.2801,17.4671,37.1964,,,31.133,,,-13.8125,-2.80601,,-14.1394,15.6001,,-1.34909,18.0944,7.99348,188.089,14.7942,-180.822,-1.90833e-14,-7.95139e-15,,-1.90833e-14,-7.95139e-15,,-19.465,82.1576,,-10.3698,7.86675,
117,86.8325,,,53.2338,,,-30.2254,3.26443,-80.2772,-20.8399,-1.07553,93.9903,3.54486,,,-4.25767,,,-20.4352,-0.233531,-17.1244,-28.4247,6.43631,17.8301,37.1502,,,31.4151,,,-13.7475,-2.39411,,-14.4306,15.6724,,-1.32622,18.0974,7.99497,188.316,15.3247,-180.523,-2.54444e-14,2.78299e-15,,-2.54444e-14,2.78299e-15,,-16.9278,81.963,,-10.4945,8.03347,
118,87.9798,,,53.2935,,,-30.5048,3.10424,-80.1515,-20.8221,-0.825999,93.1852,3.69349,,,-5.43779,,,-20.6475,0.420138,-16.823,-28.7641,6.90201,18.1524,37.1558,,,31.748,,,-13.5534,-2.05039,,-14.6218,15.8848,,-1.30036,18.0927,7.99884,188.559,16.1024,-180.229,1.59028e-15,-1.74931e-14,,1.59028e-15,-1.74931e-14,,-11.4354,83.1959,,-10.7605,8.39814,
119,88.8322,,,53.7861,,,-30.968,2.92703,-80.0807,-20.4633,-0.513607,92.1307,3.79761,,,-9.13012,,,-20.9334,0.891782,-16.8142,-29.094,7.15147,18.1722,37.1801,,,32.1275,,,-13.4323,-1.70892,,-14.8822,15.9672,,-1.27879,18.0744,8.00919,188.728,16.6351,-180.224,-2.18663e-14,4.37326e-15,,-2.18663e-14,4.37326e-15,,-1.51583,86.3722,,-11.0869,8.5894,
120,89.0228,,,54.4815,,,-31.5145,2.77947,-79.9006,-19.7839,-0.251958,91.1995,3.96527,,,-12.3087,,,-21.2401,1.05994,-16.7329,-29.3581,7.08654,18.2722,37.2466,,,32.5097,,,-13.4017,-1.32711,,-15.1483,16.0146,,-1.25924,18.0634,8.02432,188.868,16.9068,-180.196,-5.36719e-15,-2.3059e-14,,-5.36719e-15,-2.3059e-14,,7.40405,88.6923,,-11.1646,8.63009,
121,88.4166,,,54.7977,,,-31.5407,2.49327,-79.7487,-18.5555,-0.146787,90.4009,4.20282,,,-14.9569,,,-21.4588,1.32554,-16.3827,-29.5127,7.13291,18.66,37.3417,,,32.889,,,-13.4369,-0.885365,,-15.3132,16.2439,,-1.24006,18.0627,8.02993,189.009,17.3235,-179.885,-4.55217e-14,-3.18055e-15,,-4.55217e-14,-3.18055e-15,,14.7176,-90.1031,,-11.3213,8.70231,
122,87.1434,,,55.1459,,,-31.6556,2.20306,-79.4812,-17.2591,-0.371351,89.8422,4.38696,,,-17.2092,,,-21.7946,1.55761,-16.3922,-29.7173,7.23755,18.6602,37.4394,,,33.2984,,,-13.4658,-0.521705,,-15.0151,16.555,,-1.22028,18.0596,8.03439,189.112,17.648,-179.903,2.42517e-14,-3.22031e-14,,2.42517e-14,-3.22031e-14,,20.6568,-90.5537,,-11.5304,8.26269,
123,85.4442,,,55.464,,,-31.9427,1.94983,-79.2195,-16.1661,-0.697261,89.3734,4.69331,,,-19.0535,,,-22.3175,1.62351,-16.4884,-29.9598,7.22922,18.5288,37.5312,,,33.7803,,,-13.5767,-0.297554,,-14.4885,16.6631,,-1.19935,18.0542,8.05021,189.248,17.6142,-180.053,-1.13307e-14,-5.48646e-14,,-1.13307e-14,-5.48646e-14,,25.2869,-90.3551,,-11.726,7.80832,
124,83.6241,,,55.7003,,,-32.1366,1.9455,-79.0336,-15.2771,-0.786306,89.0336,4.812,,,-20.7593,,,-22.7167,1.49011,-16.1652,-30.0318,7.10277,18.8041,37.6658,,,34.303,,,-13.8045,-0.104475,,-14.4868,16.6578,,-1.18185,18.0453,8.0646,189.355,17.3915,-179.861,1.59028e-14,-1.39149e-14,,1.59028e-14,-1.39149e-14,,28.7706,89.3116,,-11.7877,7.59972,
125,81.579,,,55.8999,,,-32.1705,1.82372,-78.8134,-14.3072,-1.06562,88.8877,4.78356,,,-22.373,,,-23.0041,1.50795,-15.8694,-30.0059,6.97142,19.1132,37.7996,,,34.8429,,,-13.8299,0.0333021,,-14.718,16.8332,,-1.16504,18.0335,8.07743,189.337,17.2664,-179.659,3.97569e-16,-2.34566e-14,,3.97569e-16,-2.34566e-14,,31.173,87.6321,,-12.014,7.36383,
126,79.1029,,,56.0339,,,-32.2013,1.7863,-78.6616,-13.2939,-1.45911,88.8523,4.65811,,,-23.7208,,,-23.4287,1.59101,-15.9701,-30.1436,6.85235,19.0508,37.9098,,,35.3987,,,-13.7171,0.165255,,-14.7546,17.024,,-1.14838,18.0277,8.09169,189.323,17.197,-179.78,-4.41302e-14,1.59028e-15,,-4.41302e-14,1.59028e-15,,32.4633,85.4006,,-12.3547,7.17579,
127,76.5839,,,56.1596,,,-32.3126,1.86473,-78.698,-12.4086,-1.96571,88.8543,4.5105,,,-24.2645,,,-23.9565,1.51652,-16.1409,-30.271,6.70521,18.8998,37.9138,,,35.9236,,,-13.6859,0.052263,,-14.4895,17.0573,,-1.13133,18.031,8.10836,189.337,16.9809,-180.001,-1.94809e-14,2.46493e-14,,-1.94809e-14,2.46493e-14,,32.1634,83.8432,,-12.8335,6.88857,
128,72.3592,,,56.2013,,,-32.2252,1.99311,-78.9147,-10.9929,-2.75129,88.6082,4.56431,,,-26.8611,,,-24.6101,1.48433,-16.0782,-30.4155,6.54825,18.9637,37.9389,,,36.543,,,-13.715,-0.203459,,-14.097,16.7839,,-1.10987,18.0284,8.13771,189.413,16.5459,-180.05,2.42517e-14,1.70955e-14,,2.42517e-14,1.70955e-14,,31.6013,78.9049,,-13.455,6.73945,
129,68.9923,,,56.1502,,,-31.8066,2.14669,-79.1292,-9.44748,-3.4694,88.5735,4.70871,,,-26.578,,,-24.1199,2.06382,-15.8679,-29.7036,6.9879,19.3299,37.8811,,,37.2403,,,-13.8053,0.0121876,,-14.0759,16.8978,,-1.09856,18.0345,8.10631,188.958,17.1178,-179.719,-7.95139e-15,7.15625e-15,,-7.95139e-15,7.15625e-15,,28.4643,77.4061,,-13.9905,6.75109,
130,65.0531,,,56.1809,,,-31.4382,3.27222,-79.4967,-8.3841,-3.3965,88.6287,4.93664,,,-28.1705,,,-24.8837,2.20035,-15.6791,-29.7745,6.87243,19.5533,37.855,,,38.1122,,,-13.8549,-0.21396,,-13.7063,16.5747,,-1.08338,18.0221,8.12446,189.106,16.6873,-179.565,1.47101e-14,4.13472e-14,,1.47101e-14,4.13472e-14,,24.1014,74.1174,,-14.4505,6.49525,
131,60.9149,,,56.1997,,,-30.8326,3.82224,-80.0016,-6.69409,-4.0208,88.5049,5.03363,,,-29.0049,,,-25.6723,2.20177,-15.4896,-29.7374,6.69812,19.7654,37.8156,,,39.065,,,-13.9952,-0.448128,,-13.8396,16.2359,,-1.06818,18.0143,8.14283,189.186,16.2023,-179.446,-4.96962e-15,5.32743e-14,,-4.96962e-15,5.32743e-14,,17.9331,71.6429,,-15.0069,6.36347,
132,56.8457,,,56.1024,,,-30.173,4.40892,-80.561,-4.96148,-4.58866,88.4244,5.0948,,,-29.3142,,,-26.5256,2.08945,-15.3094,-29.7421,6.44978,19.9772,37.8871,,,40.1131,,,-14.1716,-0.553358,,-13.7603,16.0887,,-1.05602,18.0099,8.16143,189.237,15.7122,-179.331,-7.55382e-15,-1.66979e-14,,-7.55382e-15,-1.66979e-14,,10.3439,70.0058,,-15.584,6.1936,
133,52.8804,,,56.1277,,,-29.4205,4.80698,-81.1912,-3.31177,-5.24554,88.3484,5.42237,,,-29.7367,,,-27.3982,2.06195,-15.221,-29.7944,6.22979,20.1343,37.996,,,41.1858,,,-14.2559,-0.805402,,-13.3951,15.8896,,-1.04698,18.0045,8.18006,189.246,15.2566,-179.272,-1.59028e-14,-2.64384e-14,,-1.59028e-14,-2.64384e-14,,1.91814,68.8633,,-15.7998,6.26573,
134,49.1713,,,56.3758,,,-28.8393,5.2137,-81.7472,-1.97202,-6.04162,88.3326,5.80011,,,-30.073,,,-28.4201,2.15392,-15.2968,-30.0971,6.18109,20.1265,38.2314,,,42.378,,,-14.3379,-1.07716,,-13.0556,15.6717,,-1.03529,17.9944,8.20041,189.323,14.9717,-179.342,3.97569e-14,-3.75703e-14,,3.97569e-14,-3.75703e-14,,-6.7065,68.4824,,-15.7662,6.24246,
135,45.6717,,,56.7203,,,-28.3701,6.01711,-82.3467,-0.932407,-6.57799,88.4138,5.82754,,,-30.6778,,,-29.3429,2.4206,-15.3409,-30.4074,6.3311,20.1539,38.5421,,,43.603,,,-14.4522,-1.25048,,-12.8005,15.5033,,-1.02258,17.9843,8.21287,189.404,14.9493,-179.341,-4.59193e-14,1.13307e-14,,-4.59193e-14,1.13307e-14,,-14.7738,68.6431,,-15.6741,5.02758,
136,42.246,,,56.8346,,,-27.5947,6.84263,-82.9697,0.0680422,-6.90666,88.5105,5.82536,,,-32.239,,,-30.1649,2.75252,-15.2533,-30.5972,6.42332,20.3603,38.9292,,,44.8792,,,-14.6058,-1.37268,,-12.3142,15.3254,,-1.01319,17.9512,8.21742,189.413,14.9381,-179.186,-7.95139e-16,1.2921e-14,,-7.95139e-16,1.2921e-14,,-21.9242,68.965,,-15.4712,3.75935,
137,39.3036,,,56.6961,,,-26.7188,7.43573,-83.5552,0.826785,-7.34261,88.5566,6.12759,,,-33.7029,,,-30.9882,2.97392,-15.3586,-30.8094,6.49617,20.381,39.281,,,46.1086,,,-14.752,-1.37707,,-11.4202,15.302,,-1.00354,17.936,8.22344,189.405,15.0167,-179.205,1.37161e-14,2.60408e-14,,1.37161e-14,2.60408e-14,,-27.8131,69.0075,,-15.3565,4.1662,
138,36.9876,,,56.5783,,,-25.7943,7.75596,-84.106,1.46214,-8.12791,88.4978,6.4248,,,-33.4761,,,-31.7212,3.23123,-15.5107,-30.9772,6.64487,20.3693,39.6553,,,47.33,,,-14.8732,-1.3801,,-10.6125,15.3323,,-0.996052,17.9252,8.22995,189.33,15.211,-179.249,1.69961e-14,1.40143e-14,,1.69961e-14,1.40143e-14,,-30.0953,69.4909,,-15.3018,5.03052,
139,36.6934,,,56.4715,,,-24.6574,8.6194,-84.7226,1.45375,-7.16661,88.6055,6.416,,,-33.6209,,,-32.5386,3.7006,-15.3779,-31.1485,6.73413,20.6637,39.8278,,,48.4496,,,-14.8863,-1.33825,,-10.3829,15.1701,,-0.992273,17.9053,8.23578,189.437,15.3689,-178.999,-1.69961e-14,-2.0773e-14,,-1.69961e-14,-2.0773e-14,,-27.3178,69.7717,,-15.2737,5.62513,
140,36.9157,,,56.3808,,,-23.4458,9.35781,-85.3679,1.42161,-5.66917,88.8376,6.65018,,,-34.0245,,,-33.5989,4.17138,-15.3678,-31.5543,6.72552,20.8635,39.9533,,,49.5203,,,-14.8142,-1.21693,,-10.5931,15.0391,,-0.990651,17.8774,8.24124,189.739,15.5,-178.813,-6.58971e-14,1.38652e-14,,-6.58971e-14,1.38652e-14,,-18.3744,69.832,,-15.1755,5.9293,
141,37.2896,,,56.4818,,,-22.5124,9.96342,-85.8964,1.02736,-5.13639,89.1918,7.16067,,,-31.5107,,,-33.7014,4.64315,-15.3106,-31.1351,6.85446,21.1393,39.9245,,,50.3457,,,-14.8373,-0.857402,,-11.2197,15.305,,-0.997004,17.8898,8.21674,189.494,15.9946,-178.538,-1.69961e-14,-2.93207e-15,,-1.69961e-14,-2.93207e-15,,-18.2807,70.1732,,-15.1288,6.2952,
142,37.9944,,,56.8281,,,-21.8227,10.5317,-86.4366,0.454005,-5.12765,89.4029,7.27668,,,-28.4278,,,-34.0204,4.98283,-15.5923,-30.9588,6.62207,21.0854,39.9412,,,51.0416,,,-14.9736,-0.334921,,-11.7745,15.6392,,-1.00767,17.8938,8.18456,189.419,16.3798,-178.567,2.4202e-14,-3.78933e-14,,2.4202e-14,-3.78933e-14,,-18.6137,70.7042,,-15.4967,7.70709,
143,39.0022,,,57.2357,,,-21.047,11.1357,-86.924,-0.254579,-5.33775,89.6764,6.99127,,,-24.7646,,,-34.2151,5.35527,-16.2468,-30.8126,6.08179,20.7407,39.9457,,,51.557,,,-15.1665,0.484814,,-12.2767,15.5785,,-1.02024,17.9017,8.1392,189.365,16.8082,-178.875,6.60959e-15,4.07509e-15,,6.60959e-15,4.07509e-15,,-19.4711,71.2638,,-16.0086,8.59559,
144,40.3262,,,57.4327,,,-20.2248,11.9305,-87.2885,-1.19676,-5.36935,90.1711,6.63515,,,-21.2048,,,-34.5839,5.84195,-16.65,-30.8157,5.81486,20.594,40.1001,,,52.0883,,,-15.2631,0.951711,,-12.5803,14.9634,,-1.02766,17.897,8.11366,189.321,17.2208,-179.01,-1.16289e-14,1.82882e-14,,-1.16289e-14,1.82882e-14,,-20.4918,71.2523,,-16.2662,8.4665,
145,41.774,,,57.5201,,,-19.2126,13.0352,-87.896,-1.88578,-5.29511,90.2815,6.06006,,,-17.5608,,,-35.1375,6.27416,-16.6982,-30.8631,5.98948,20.7007,40.2997,,,52.6282,,,-15.267,0.808973,,-12.7139,14.2004,,-1.03147,17.8793,8.10631,189.269,17.5764,-178.895,2.41026e-14,3.80673e-14,,2.41026e-14,3.80673e-14,,-21.3709,70.9068,,-16.7406,8.327,
146,43.3002,,,57.7982,,,-18.2376,13.2792,-88.2339,-2.37866,-5.91998,90.6029,5.18344,,,-14.4858,,,-35.6183,6.67894,-16.6364,-30.8329,6.22211,20.8926,40.5113,,,53.1114,,,-15.2965,0.758024,,-12.9077,13.4503,,-1.037,17.8624,8.09611,189.189,17.9156,-178.676,-1.36167e-14,2.85256e-14,,-1.36167e-14,2.85256e-14,,-21.9469,70.2922,,-17.007,8.44986,
147,44.9184,,,58.1093,,,-17.4576,13.65,-88.6547,-3.24787,-6.18655,90.9622,4.28056,,,-11.9933,,,-36.0428,6.96914,-16.5385,-30.7721,6.32481,21.113,40.6947,,,53.4452,,,-15.3777,0.91486,,-13.1811,12.6203,,-1.04315,17.8515,8.08488,189.124,18.1559,-178.451,6.85807e-15,1.33186e-14,,6.85807e-15,1.33186e-14,,-22.1465,69.2724,,-16.931,8.7543,
148,46.6146,,,58.1533,,,-16.4438,13.8713,-89.2572,-4.18234,-6.48884,91.0912,3.95524,,,-9.32877,,,-36.3856,7.16958,-16.584,-30.6888,6.40926,21.2024,40.8523,,,53.6099,,,-15.4446,1.26375,,-13.3479,11.8271,,-1.04876,17.842,8.06756,189.036,18.4277,-178.344,-6.95746e-14,-2.68359e-14,,-6.95746e-14,-2.68359e-14,,-21.7072,68.0941,,-16.9648,9.02781,
149,48.3152,,,58.1407,,,-15.5687,14.1577,-89.1914,-5.35962,-6.70453,91.8834,3.75663,,,-6.79387,,,-36.7346,7.33846,-16.7498,-30.6009,6.49829,21.1722,40.9796,,,53.6174,,,-15.5264,1.49211,,-13.3354,11.0674,,-1.05486,17.833,8.04513,188.937,18.7129,-178.338,-9.52179e-14,8.18993e-14,,-9.52179e-14,8.18993e-14,,-20.6693,66.9792,,-17.1574,9.10776,
150,49.8432,,,58.3618,,,-14.7833,14.407,-89.2058,-6.50306,-6.91454,92.598,3.55922,,,-4.65265,,,-37.1422,7.36091,-16.8219,-30.467,6.48561,21.2033,41.0922,,,53.5118,,,-15.6357,1.53108,,-13.4218,10.2056,,-1.06134,17.8237,8.0201,188.843,18.8292,-178.287,2.127e-14,6.1822e-14,,2.127e-14,6.1822e-14,,-19.7057,65.708,,-17.4684,8.66217,
151,51.1972,,,58.492,,,-13.874,14.6357,-89.1743,-7.37768,-7.12955,93.2588,3.55724,,,-2.10514,,,-37.4365,7.38622,-16.7734,-30.2056,6.52404,21.3668,41.1875,,,53.2873,,,-15.7995,1.39249,,-13.4999,9.29419,,-1.06622,17.8127,7.99308,188.689,18.8051,-178.131,1.47101e-14,7.15625e-15,,1.47101e-14,7.15625e-15,,-18.6565,64.4955,,-17.8086,8.24569,
152,52.5353,,,58.4189,,,-12.6156,14.6876,-89.6284,-7.84813,-7.71364,93.1159,3.77636,,,1.02712,,,-37.6354,7.46464,-16.8551,-29.9775,6.65956,21.4365,41.2613,,,52.9224,,,-15.9277,1.23422,,-13.6284,8.55198,,-1.06887,17.8058,7.96607,188.534,18.8495,-178.064,2.5842e-14,2.78299e-15,,2.5842e-14,2.78299e-15,,-17.702,63.2619,,-18.5056,8.7433,
153,53.9287,,,58.5205,,,-11.8529,14.9062,-89.3402,-8.79983,-8.08434,93.833,4.10912,,,3.88943,,,-37.8708,7.65915,-17.1079,-29.8764,6.92119,21.3248,41.4376,,,52.4837,,,-16.0376,1.03582,,-13.8311,7.88936,,-1.07169,17.8004,7.9359,188.407,19.0621,-178.14,-3.97569e-15,-2.50469e-14,,-3.97569e-15,-2.50469e-14,,-17.305,62.1468,,-19.3735,9.86901,
154,55.079,,,58.6037,,,-11.1308,15.0613,-89.3087,-9.75655,-8.41202,94.351,4.5431,,,6.55654,,,-38.141,7.66638,-17.2958,-29.724,7.10945,21.2412,41.6543,,,51.9427,,,-16.2141,0.855312,,-14.003,7.31809,,-1.07529,17.7942,7.90641,188.223,19.0211,-178.209,1.70955e-14,-9.66093e-14,,1.70955e-14,-9.66093e-14,,-17.4272,61.0977,,-20.293,10.813,
155,56.1163,,,58.9375,,,-10.5653,15.0626,-89.4223,-10.5401,-8.67723,94.6575,4.89715,,,9.39209,,,-38.5629,7.38209,-17.2849,-29.7136,7.13599,21.3694,42.0361,,,51.4034,,,-16.5337,0.551112,,-14.0919,6.84252,,-1.07836,17.7559,7.88791,188.076,18.5395,-178.131,2.74323e-14,8.34896e-15,,2.74323e-14,8.34896e-15,,-18.3119,59.9041,,-20.9858,11.3279,
156,57.1375,,,59.2501,,,-9.95156,14.781,-89.4732,-11.1594,-8.8963,94.9255,5.38409,,,12.0932,,,-38.8353,7.21299,-17.2287,-29.6744,7.1228,21.6012,42.4335,,,50.6809,,,-16.9476,0.34381,,-13.9577,6.45451,,-1.07764,17.7354,7.86439,188.005,18.084,-177.96,2.46493e-14,-8.11041e-14,,2.46493e-14,-8.11041e-14,,-19.5109,58.707,,-21.588,11.868,
157,57.8724,,,59.2175,,,-8.97684,14.5319,-89.347,-11.6032,-8.8776,95.3652,6.08354,,,14.7166,,,-39.1447,7.20777,-17.5424,-29.6193,7.30126,21.4585,42.7567,,,49.7978,,,-17.2199,0.00403877,,-13.6216,6.22874,,-1.07146,17.7188,7.83729,187.881,17.7647,-178.108,5.60573e-14,-1.19271e-15,,5.60573e-14,-1.19271e-15,,-15.6844,60.3579,,-22.3627,12.5773,
158,58.4586,,,59.4468,,,-8.0096,14.4935,-89.1967,-12.0427,-8.55971,95.8446,6.60198,,,17.733,,,-39.4842,6.88634,-18.1615,-29.4361,7.27911,20.9932,42.9445,,,48.7179,,,-17.4022,-0.61788,,-13.2157,6.15704,,-1.06488,17.7163,7.81545,187.625,17.1833,-178.592,4.29375e-14,3.26007e-14,,4.29375e-14,3.26007e-14,,-15.4859,60.1805,,-23.4992,13.007,
159,59.0329,,,60.0153,,,-7.27762,14.4767,-89.0902,-12.4489,-8.08197,96.2088,6.83459,,,21.3734,,,-39.0726,6.8553,-18.4811,-28.5727,7.32359,20.8276,43.0099,,,47.5108,,,-17.7748,-0.914975,,-12.8429,6.42321,,-1.06773,17.7492,7.74463,187.081,17.0813,-178.769,-9.70069e-14,-4.77083e-15,,-9.70069e-14,-4.77083e-15,,-14.5411,61.0481,,-24.3759,13.7598,
160,59.4374,,,60.6129,,,-6.5178,13.5968,-88.9886,-12.6161,-8.34781,96.4613,6.90945,,,25.319,,,-39.1094,6.77367,-18.5845,-28.1811,7.40213,20.9272,43.1122,,,46.2887,,,-18.084,-1.66997,,-12.3421,6.64817,,-1.06537,17.7521,7.70218,186.914,16.6405,-178.727,-1.59028e-14,-3.4191e-14,,-1.59028e-14,-3.4191e-14,,-13.6214,62.433,,-24.3364,14.6004,
161,59.9854,,,61.0342,,,-6.01444,12.8689,-88.6302,-12.9924,-7.93422,97.1323,7.07722,,,31.039,,,-39.1915,6.67183,-18.7061,-27.92,7.5501,21.034,43.1468,,,45.0051,,,-18.1793,-2.66452,,-12.3533,7.03885,,-1.0577,17.7311,7.68309,186.772,16.0317,-178.715,-7.15625e-15,-4.53229e-14,,-7.15625e-15,-4.53229e-14,,-13.2253,64.8177,,-24.0526,15.301,
162,60.1886,,,61.0556,,,-5.05123,12.2881,-88.6751,-12.9322,-7.48549,97.2646,7.3263,,,36.6574,,,-39.2987,6.49286,-19.1392,-27.6457,7.41602,20.874,43.2485,,,43.6723,,,-18.3635,-3.47499,,-12.8651,7.5173,,-1.04817,17.722,7.65555,186.593,15.2633,-178.968,-3.57812e-14,-4.77083e-15,,-3.57812e-14,-4.77083e-15,,-12.1488,67.9874,,-24.1017,15.9718,
163,60.1983,,,61.4306,,,-4.60238,11.9221,-88.3118,-13.1237,-6.93935,97.7848,7.13997,,,41.8667,,,-38.5766,6.76886,-19.4587,-26.7212,7.80841,20.7347,43.3034,,,42.2703,,,-18.654,-4.04689,,-13.4292,8.18159,,-1.04492,17.7388,7.57802,185.992,15.2931,-179.138,-4.69132e-14,6.91771e-14,,-4.69132e-14,6.91771e-14,,-13.6947,67.4737,,-24.2702,16.403,
164,59.5235,,,61.9557,,,-4.07714,11.2324,-88.057,-13.2919,-7.08943,98.3467,6.75495,,,48.3697,,,-38.3934,6.74584,-19.789,-26.1789,8.02879,20.628,43.2787,,,40.8387,,,-18.6866,-4.93088,,-13.3865,8.55049,,-1.03741,17.7401,7.53442,185.674,14.807,-179.326,6.36111e-15,-8.90555e-14,,6.36111e-15,-8.90555e-14,,-14.8586,66.3193,,-24.2514,16.5931,
165,59.4708,,,62.4449,,,-3.43212,10.4618,-87.853,-13.2791,-6.94563,98.8097,6.10144,,,54.213,,,-38.683,6.23972,-19.9387,-25.9207,7.81613,20.7358,43.2234,,,39.4263,,,-18.6092,-5.92023,,-13.0606,8.7856,,-1.02662,17.7259,7.51771,185.629,13.6267,-179.358,1.59028e-15,6.12257e-14,,1.59028e-15,6.12257e-14,,-15.999,68.1347,,-23.8226,16.0892,
166,59.133,,,62.9338,,,-2.90409,10.1303,-87.6401,-13.1816,-6.37102,99.1967,5.00364,,,58.8356,,,-38.1292,6.24061,-19.6786,-25.0374,8.17395,21.0957,43.1264,,,38.0218,,,-18.8278,-6.56162,,-13.1334,9.36697,,-1.02387,17.7329,7.44965,185.23,13.3638,-179.098,-8.74653e-15,-4.37326e-14,,-8.74653e-15,-4.37326e-14,,-16.1465,68.8586,,-23.8247,15.0506,
167,58.9372,,,63.3251,,,-2.50628,9.34691,-87.4227,-13.1372,-5.88439,99.7282,4.03546,,,62.7108,,,-37.8236,6.0119,-19.5636,-24.3283,8.13619,21.3487,42.9865,,,36.5041,,,-19.2134,-7.19364,,-13.0693,9.74438,,-1.01684,17.7336,7.39469,184.979,12.7522,-178.975,-1.43125e-14,-3.26007e-14,,-1.43125e-14,-3.26007e-14,,-15.4484,68.8856,,-24.0545,14.7627,
168,58.9256,,,63.5244,,,-2.19161,8.04008,-87.2559,-13.3021,-5.66134,100.46,2.77898,,,65.8806,,,-37.4807,5.721,-19.6722,-23.6251,7.95207,21.4084,42.8254,,,34.9096,,,-19.4662,-7.78745,,-13.1264,10.0318,,-1.01145,17.7333,7.34538,184.7,12.0173,-179.033,-1.35174e-14,2.38542e-14,,-1.35174e-14,2.38542e-14,,-14.9402,68.9134,,-23.4958,14.9505,
169,58.8144,,,63.727,,,-1.91234,6.93697,-87.1254,-13.3658,-5.48654,101.141,0.914714,,,68.6158,,,-36.9358,5.65012,-19.7954,-22.9842,8.00202,21.4782,42.6857,,,33.246,,,-19.6354,-8.35518,,-13.1469,10.5569,,-1.00731,17.754,7.29266,184.439,11.5253,-179.055,4.53229e-14,8.11041e-14,,4.53229e-14,8.11041e-14,,-15.0261,68.8437,,-22.3962,14.7273,
170,58.7533,,,63.9841,,,-1.73262,6.21538,-87.0886,-13.4261,-5.33349,101.695,-1.23419,,,70.8192,,,-36.5101,5.54207,-19.9953,-22.5869,8.05741,21.4871,42.6796,,,31.6595,,,-19.8724,-9.08117,,-13.0127,11.2959,,-1.00496,17.7497,7.229,184.295,11.0695,-179.126,-2.22639e-14,-7.07673e-14,,-2.22639e-14,-7.07673e-14,,-15.476,68.8477,,-21.4594,14.0755,
171,58.9143,,,64.1724,,,-1.46095,5.70431,-87.1576,-13.4308,-5.35907,102.137,-3.53131,,,72.5386,,,-36.1244,5.04638,-19.8802,-22.1581,7.91591,21.6603,42.6907,,,30.1603,,,-20.0135,-9.80701,,-12.9614,11.9529,,-1.00471,17.7377,7.16433,184.149,10.4612,-179.053,-3.02153e-14,-7.31528e-14,,-3.02153e-14,-7.31528e-14,,-16.4222,68.6049,,-20.514,13.001,
172,59.1102,,,64.0862,,,-0.946008,4.99182,-87.1842,-13.2754,-5.69033,102.626,-5.90882,,,73.9447,,,-36.0217,4.35176,-19.5196,-21.9451,7.56495,22.0505,42.7982,,,28.8083,,,-20.2069,-10.4851,,-12.6624,12.4031,,-0.99675,17.72,7.11874,184.158,9.54351,-178.821,2.8625e-14,-1.43125e-14,,2.8625e-14,-1.43125e-14,,-17.5348,68.3677,,-19.3728,11.5935,
173,59.5341,,,63.7044,,,-0.349964,4.19054,-87.2547,-13.1623,-6.14404,103.188,-7.91677,,,74.8586,,,-35.6282,3.79437,-19.5523,-21.6269,7.25931,21.9819,42.9019,,,27.5361,,,-20.6907,-10.8105,,-12.473,13.1463,,-0.99913,17.7162,7.04439,184.104,8.99553,-178.911,-3.65764e-14,-1.11319e-14,,-3.65764e-14,-1.11319e-14,,-18.7846,68.7557,,-18.3003,10.2013,
174,60.0166,,,63.6603,,,-0.0631635,3.52228,-87.4478,-12.9754,-6.58795,103.655,-9.53489,,,74.8391,,,-35.094,3.38236,-19.6597,-21.1321,6.94057,21.8959,42.9899,,,26.379,,,-21.1578,-11.1702,,-12.1133,13.9848,,-0.998443,17.7191,6.97233,183.899,8.49194,-179.053,1.03368e-14,7.95139e-14,,1.03368e-14,7.95139e-14,,-20.0539,70.4949,,-17.1522,8.3397,
175,60.059,,,63.8512,,,-0.158452,3.23822,-87.6151,-12.6898,-7.04265,104.109,-10.9879,,,74.498,,,-34.7611,2.49718,-19.3313,-20.5332,6.24263,22.3726,43.0717,,,25.4,,,-21.4725,-11.91,,-11.985,14.5821,,-0.987195,17.7011,6.94367,183.577,7.16274,-178.813,-4.77083e-14,-2.46493e-14,,-4.77083e-14,-2.46493e-14,,-21.4695,71.9325,,-15.9919,6.36121,
176,60.1964,,,63.9859,,,-0.281033,3.2861,-87.6402,-12.4941,-7.49408,104.672,-12.5415,,,74.0935,,,-34.5008,1.69628,-18.9935,-20.0962,5.91336,22.6647,43.1311,,,24.6483,,,-21.7575,-12.4626,,-13.3403,15.5113,,-0.982841,17.6872,6.88077,183.459,6.36264,-178.652,-3.02153e-14,-3.97569e-15,,-3.02153e-14,-3.97569e-15,,-23.1444,72.4329,,-14.9348,4.34055,
177,60.7333,,,63.8507,,,-0.22528,3.12819,-87.6213,-12.4375,-8.22635,105.31,-14.0632,,,73.4375,,,-34.3921,1.13503,-18.7147,-19.8001,5.73622,22.8985,43.184,,,24.2288,,,-21.996,-12.9184,,-12.0006,16.669,,-0.982475,17.6758,6.80699,183.478,5.8083,-178.495,-2.8625e-14,-4.6118e-14,,-2.8625e-14,-4.6118e-14,,-24.8031,72.9718,,-13.7216,2.01825,
178,61.3381,,,63.7675,,,-0.100513,3.24129,-87.5162,-12.2215,-9.05555,105.867,-15.7613,,,72.5306,,,-34.3474,0.966843,-18.6281,-19.4683,5.39509,23.1625,43.2234,,,24.1649,,,-22.3027,-13.3247,,-11.5385,17.3101,,-0.980268,17.6619,6.73667,183.461,5.16285,-178.325,1.74931e-14,7.95139e-16,,1.74931e-14,7.95139e-16,,-26.1698,73.7243,,-12.7187,0.72819,
179,62.0605,,,64.0084,,,-0.00579853,3.80079,-87.5452,-11.7627,-9.88558,106.141,-17.2167,,,71.3993,,,-34.3052,1.43526,-18.8298,-19.0096,4.98323,23.4363,43.2417,,,24.44,,,-22.5889,-13.7243,,-11.383,17.3843,,-0.976736,17.644,6.66383,183.352,4.51199,-178.162,2.46493e-14,1.43125e-14,,2.46493e-14,1.43125e-14,,-27.3338,74.8692,,-12.7962,1.60846,
180,62.7872,,,64.4166,,,-0.156417,4.31883,-87.5934,-11.369,-10.9484,106.309,-17.4504,,,70.2642,,,-34.2489,2.06529,-18.9481,-18.4856,4.84636,23.802,43.2073,,,25.0269,,,-22.73,-14.1904,,-10.7977,17.6004,,-0.970152,17.624,6.59478,183.175,4.07913,-177.933,-4.21423e-14,-1.03368e-14,,-4.21423e-14,-1.03368e-14,,-28.4114,75.704,,-13.9212,3.03353,
181,63.3868,,,64.7199,,,-0.434727,4.61957,-87.6096,-11.0739,-11.9112,106.522,-16.4183,,,69.1988,,,-34.1765,2.78455,-19.2983,-17.8484,4.5247,24.0476,43.1137,,,25.8334,,,-22.948,-14.4883,,-10.1668,17.8134,,-0.970098,17.6133,6.52084,182.95,3.53129,-177.779,1.59028e-14,5.48646e-14,,1.59028e-14,5.48646e-14,,-29.2832,75.8519,,-15.5262,3.01611,
182,63.9951,,,65.3621,,,-0.971923,4.62047,-87.7165,-10.9005,-12.5421,106.856,-15.3143,,,67.6838,,,-34.0923,3.55876,-19.8509,-17.0365,4.02507,24.1891,42.979,,,26.7797,,,-23.3401,-14.7885,,-10.4174,18.0216,,-0.971129,17.6134,6.43444,182.635,2.76804,-177.736,1.03368e-14,-2.70347e-14,,1.03368e-14,-2.70347e-14,,-29.7544,76.0047,,-15.6372,2.22719,
183,64.8383,,,66.5398,,,-1.87437,4.3811,-87.8646,-11.0012,-13.0962,107.24,-15.5484,,,65.762,,,-34.0417,4.34465,-20.57,-16.2458,3.63635,24.0704,42.8519,,,27.6861,,,-23.7375,-15.1125,,-8.13248,18.0089,,-0.968941,17.6138,6.34631,182.325,2.12604,-177.931,-1.94809e-14,4.77083e-15,,-1.94809e-14,4.77083e-15,,-29.9778,76.3889,,-15.5562,0.934011,
184,65.6601,,,67.8535,,,-2.85727,4.09014,-87.9605,-11.205,-13.6944,107.574,-17.0566,,,63.9119,,,-34.0669,4.87996,-20.8998,-15.5886,3.38152,24.1496,42.7487,,,28.4326,,,-23.9506,-15.561,,-7.68996,17.928,,-0.962862,17.6022,6.26615,182.124,1.51913,-177.956,-3.37934e-14,-5.08889e-14,,-3.37934e-14,-5.08889e-14,,-29.9695,76.4666,,-15.3301,0.977788,
185,66.0967,,,69.1856,,,-3.56416,3.91414,-88.0939,-11.0699,-14.3844,107.636,-18.6535,,,62.6273,,,-34.2073,5.27539,-21.164,-15.0971,3.02824,24.2339,42.6771,,,29.0111,,,-24.2452,-15.8735,,-7.25572,17.3272,,-0.95727,17.5902,6.18812,182.068,0.805074,-177.961,2.46493e-14,-1.27222e-14,,2.46493e-14,-1.27222e-14,,-29.8101,75.7317,,-14.9777,1.91627,
186,66.2369,,,70.5528,,,-3.96867,3.87404,-88.1047,-10.6194,-14.9125,107.67,-19.2948,,,61.7003,,,-34.3501,5.50857,-21.3427,-14.6551,2.65078,24.3341,42.5942,,,29.5121,,,-24.521,-16.1821,,-7.07281,16.3594,,-0.952146,17.5847,6.11227,182.014,0.0582469,-177.949,3.73715e-14,-4.6118e-14,,3.73715e-14,-4.6118e-14,,-29.3743,74.2928,,-15.2207,1.96858,
187,66.495,,,71.8282,,,-4.34641,3.83941,-88.0052,-10.3477,-14.9183,107.848,-18.9286,,,60.7434,,,-34.435,5.5155,-21.2788,-14.1661,2.43056,24.5931,42.4442,,,29.9536,,,-24.893,-16.6258,,-7.73811,15.3839,,-0.945659,17.5774,6.03707,181.932,-0.708463,-177.824,2.06736e-14,-1.01778e-13,,2.06736e-14,-1.01778e-13,,-28.4061,72.8315,,-16.1181,1.03976,
188,67.128,,,72.9893,,,-4.64695,3.97317,-87.8985,-10.4715,-14.5579,108.109,-18.2722,,,59.5306,,,-34.4514,5.52346,-21.0787,-13.58,2.39939,24.9509,42.2288,,,30.3657,,,-25.3362,-17.1378,,-7.52603,14.3738,,-0.940009,17.5657,5.95167,181.841,-1.36215,-177.624,5.76476e-14,-7.95139e-16,,5.76476e-14,-7.95139e-16,,-27.0868,70.9542,,-17.0282,2.62085,
189,67.5323,,,74.1285,,,-4.78472,3.80109,-87.7892,-10.5138,-14.756,108.281,-17.8137,,,58.1408,,,-34.4472,5.44935,-20.8883,-12.9388,2.21917,25.2367,41.9862,,,30.7828,,,-25.5831,-17.4724,,-6.95755,13.917,,-0.94565,17.5597,5.86148,181.733,-1.94003,-177.413,1.70955e-14,4.05521e-14,,1.70955e-14,4.05521e-14,,-25.4127,68.7621,,-17.6687,2.81057,
190,67.6654,,,75.3147,,,-4.72787,3.88105,-87.6053,-10.0549,-14.7748,108.292,-17.3895,,,56.7184,,,-34.2993,5.31837,-20.9685,-12.1443,1.88498,25.2376,41.7471,,,31.2199,,,-25.7219,-17.531,,-7.14107,13.4077,,-0.955657,17.559,5.77304,181.491,-2.51523,-177.412,5.52621e-14,-7.87187e-14,,5.52621e-14,-7.87187e-14,,-23.1319,67.0706,,-18.0647,2.90208,
191,67.839,,,76.5271,,,-4.597,4.05793,-87.473,-9.55245,-14.7635,108.147,-17.0047,,,55.2947,,,-34.1213,5.3762,-21.2557,-11.421,1.70474,25.0533,41.5398,,,31.6569,,,-25.8582,-17.4876,,-6.11346,12.2063,,-0.963408,17.5579,5.68538,181.312,-2.90693,-177.591,1.70955e-14,-1.59028e-15,,1.70955e-14,-1.59028e-15,,-20.3483,65.6255,,-18.6787,3.26916,
192,68.0302,,,77.7704,,,-4.52796,4.17845,-87.446,-9.07536,-15.2368,107.744,-16.8631,,,54.4257,,,-33.8333,5.54597,-21.1252,-10.7148,1.87225,25.2264,41.4012,,,32.0381,,,-26.0622,-17.3949,,-5.62103,11.2154,,-0.969117,17.5537,5.60443,181.073,-3.01665,-177.476,1.27222e-14,8.18993e-14,,1.27222e-14,8.18993e-14,,-18.0868,63.7488,,-19.2466,3.73878,
193,68.1202,,,79.1377,,,-4.62856,4.2742,-87.4071,-8.57016,-15.9969,107.25,-16.516,,,53.8716,,,-33.5533,5.59432,-20.8193,-10.1077,1.9131,25.5392,41.3606,,,32.4181,,,-25.9097,-17.4238,,-5.24857,10.2807,,-0.983049,17.5475,5.52592,180.824,-3.15733,-177.173,-4.69132e-14,2.06736e-14,,-4.69132e-14,2.06736e-14,,-16.3142,61.628,,-19.8163,4.20531,
194,68.2638,,,80.575,,,-4.56019,4.07927,-87.3537,-7.88778,-17.0595,106.719,-15.8465,,,53.3393,,,-33.1357,5.40417,-21.0478,-9.47731,1.53031,25.3315,41.4455,,,32.7562,,,-25.2414,-17.4853,,-5.0194,9.31486,,-0.995522,17.549,5.44474,180.511,-3.61486,-177.314,6.36111e-15,1.59028e-15,,6.36111e-15,1.59028e-15,,-14.7326,60.0194,,-20.4175,4.39587,
195,68.4314,,,81.9925,,,-4.82016,4.33678,-87.2864,-7.53466,-17.4288,106.342,-15.2195,,,52.5299,,,-32.9232,5.29623,-21.1679,-9.19977,1.40889,25.172,41.6728,,,33.0371,,,-24.3951,-17.2736,,-4.94312,8.80605,,-1.01453,17.5538,5.35609,180.427,-3.79316,-177.358,3.29983e-14,-5.64548e-14,,3.29983e-14,-5.64548e-14,,-13.1431,58.7729,,-21.038,4.42937,
196,68.5732,,,83.294,,,-4.83758,4.50236,-87.262,-6.84593,-17.8828,105.797,-14.4875,,,51.5315,,,-32.825,5.10681,-21.1903,-9.12211,1.27186,25.0896,42.003,,,33.1927,,,-24.0946,-16.7787,,-4.7886,8.60473,,-1.03718,17.5609,5.27911,180.439,-4.01501,-177.293,1.59028e-15,-7.79236e-14,,1.59028e-15,-7.79236e-14,,-11.6911,57.7999,,-21.4308,4.89708,
197,68.6987,,,84.7481,,,-4.92077,4.30479,-87.2497,-6.07144,-18.4135,105.36,-13.6673,,,50.2856,,,-32.5677,4.76124,-21.3918,-8.90724,1.08349,24.7392,42.4641,,,33.3817,,,-24.5002,-15.9734,,-4.60318,8.6333,,-1.06759,17.5649,5.20048,180.328,-4.22999,-177.405,-5.24792e-14,-8.66701e-14,,-5.24792e-14,-8.66701e-14,,-10.55,57.058,,-21.8147,5.29371,
198,68.8375,,,85.3579,,,-3.99309,4.88099,-86.8396,-5.24239,-18.9366,104.933,-13.2187,,,49.2131,,,-31.9742,3.8803,-21.6206,-8.27366,0.380859,24.4937,42.9816,,,33.5501,,,-24.4817,-15.7225,,-4.32283,8.34784,,-1.08874,17.5733,5.10947,179.915,-5.28187,-177.552,-1.86858e-14,5.08889e-14,,-1.86858e-14,5.08889e-14,,-9.65568,55.6179,,-22.6039,5.44517,
199,69.3778,,,86.4923,,,-3.394,5.12274,-86.6344,-4.50976,-19.3972,104.528,-12.4282,,,48.1379,,,-31.9051,3.84017,-21.4589,-8.4341,0.381518,24.5658,43.6667,,,33.7343,,,-24.1433,-15.4431,,-4.07684,8.13116,,-1.10996,17.5827,5.03555,179.915,-5.31357,-177.344,7.95139e-16,-4.77083e-15,,7.95139e-16,-4.77083e-15,,-8.56552,56.874,,-23.6542,5.01434,
200,70.1959,,,87.6174,,,-3.02287,4.95413,-86.4739,-3.63359,-19.5155,104.112,-12.1012,,,46.4432,,,-31.3642,3.59962,-21.3762,-8.21648,0.125156,24.6422,44.4609,,,33.8688,,,-23.4656,-15.3349,,-3.90284,7.74613,,-1.12898,17.5917,4.94638,179.574,-5.7147,-177.198,3.97569e-16,2.46493e-14,,3.97569e-16,2.46493e-14,,-6.80816,58.5342,,-23.1546,5.91854,
201,70.559,,,88.6742,,,-2.48688,4.634,-86.1718,-2.61177,-20.1933,103.749,-11.8528,,,46.0386,,,-30.7667,3.29489,-21.65,-8.13,-0.160684,24.2822,45.4708,,,33.9902,,,-22.161,-15.0253,,-3.73884,7.62954,,-1.15724,17.6012,4.85086,179.3,-5.9921,-177.36,-7.95139e-16,-4.92986e-14,,-7.95139e-16,-4.92986e-14,,-7.66203,56.0999,,-22.7066,6.59428,
202,71.1637,,,89.4823,,,-1.88633,4.3898,-86.0276,-1.83374,-20.6443,103.395,-11.2216,,,45.6688,,,-30.22,3.07322,-22.1584,-8.17825,-0.555662,23.6808,46.6128,,,34.0408,,,-20.7504,-14.531,,-3.54188,7.58552,,-1.18909,17.6177,4.76134,179.097,-6.3046,-177.686,-1.27222e-14,2.46493e-14,,-1.27222e-14,2.46493e-14,,-7.03642,54.4539,,-22.8646,7.01823,
203,71.8605,,,90.3261,,,-1.38865,4.17885,-85.9578,-1.30176,-20.8598,103.107,-11.0609,,,45.3835,,,-29.8949,2.58913,-22.3959,-8.52478,-1.05975,23.4061,47.9681,,,34.0822,,,-19.467,-14.2858,,-3.47996,7.83121,,-1.21022,17.6295,4.69022,178.948,-6.90836,-177.808,-4.77083e-15,-1.51076e-14,,-4.77083e-15,-1.51076e-14,,-6.18798,55.7527,,-23.0655,7.63564,
204,72.3214,,,91.2556,,,-0.935801,3.97984,-85.6951,-0.190713,-21.4316,102.605,-10.7479,,,45.3008,,,-29.3081,1.88548,-22.4086,-8.69867,-1.95151,23.3852,49.4335,,,34.0473,,,-18.6399,-13.8466,,-2.74497,7.29279,,-1.23453,17.632,4.61594,178.564,-7.889,-177.695,-1.51076e-14,-2.78299e-14,,-1.51076e-14,-2.78299e-14,,-6.26789,54.8678,,-22.98,8.12809,
205,72.9208,,,92.2755,,,-0.681129,3.85038,-85.3023,0.804856,-21.6776,102.197,-10.7749,,,44.2512,,,-28.9214,2.07584,-22.4146,-9.51861,-1.88711,23.2288,51.1496,,,33.9654,,,-17.4739,-13.1352,,-2.39769,7.48441,,-1.26094,17.6403,4.54029,178.522,-7.64744,-177.62,-1.19271e-15,-6.91771e-14,,-1.19271e-15,-6.91771e-14,,-4.57864,55.5067,,-22.9019,8.61852,
206,73.4824,,,92.9332,,,-0.108286,3.66776,-84.8147,1.61248,-22.1309,101.888,-11.1665,,,44.4962,,,-28.4793,0.889282,-22.9495,-9.76663,-3.4105,22.6685,52.7097,,,34.1376,,,-16.135,-12.6217,,-2.11856,7.45265,,-1.30108,17.6524,4.45549,178.261,-9.26594,-177.841,2.5842e-14,-2.78299e-14,,2.5842e-14,-2.78299e-14,,-4.80872,53.9951,,-22.6826,9.2259,
207,74.0452,,,93.2791,,,0.744935,3.45692,-84.4559,2.47717,-22.5535,101.454,-11.4478,,,45.0021,,,-27.8489,1.21229,-23.654,-10.6618,-3.06332,21.7532,54.7355,,,33.7697,,,-14.3943,-12.0131,,-1.90401,8.00253,,-1.32613,17.6625,4.38297,178.205,-8.78605,-178.412,2.34566e-14,-1.43125e-14,,2.34566e-14,-1.43125e-14,,-5.28436,52.3597,,-22.608,9.6443,
208,74.4997,,,93.6354,,,1.62685,3.23046,-84.0161,3.51532,-22.668,101.061,-11.6139,,,44.2827,,,-25.6269,1.83724,-20.9733,-9.63138,-1.97648,24.6043,56.5088,,,33.4083,,,-13.1003,-12.7856,,-1.89462,7.88464,,-1.2869,17.6725,4.26348,176.145,-8.41912,-176.221,1.03368e-14,-3.49861e-14,,1.03368e-14,-3.49861e-14,,-3.62884,52.48,,-22.76,10.3396,
209,75.1823,,,94.1591,,,2.32073,2.85629,-83.6056,4.48054,-23.2112,100.538,-11.5995,,,45.0159,,,-26.1838,1.31807,-25.5088,-11.9098,-3.39583,19.7296,58.8273,,,33.1095,,,-11.953,-10.9651,,-1.98679,7.68498,,-1.34881,17.6833,4.21714,177.835,-9.44833,-179.913,-5.96354e-15,-1.98785e-14,,-5.96354e-15,-1.98785e-14,,-4.38884,51.255,,-22.6038,10.7925,
210,75.6634,,,94.8262,,,2.92228,2.37577,-83.3607,5.58333,-23.5506,99.8518,-11.4155,,,44.9379,,,-25.7098,1.4645,-27.2004,-13.0563,-3.48789,17.7212,60.8464,,,32.9723,,,-9.99594,-9.85704,,-2.19453,7.72143,,-1.38558,17.6763,4.17318,177.988,-9.40469,-181.299,-4.01545e-14,5.32743e-14,,-4.01545e-14,5.32743e-14,,-3.8864,50.7296,,-22.129,10.8383,
211,76.0576,,,95.192,,,3.86753,1.68915,-83.0521,6.7356,-23.7897,99.3416,-11.3859,,,44.2381,,,-24.1521,2.53213,-24.3065,-12.8774,-1.67348,20.676,62.5065,,,32.8539,,,-8.33605,-10.3043,,-2.53809,7.90206,,-1.38311,17.679,4.08242,176.388,-8.19884,-178.88,-8.74653e-15,9.54166e-14,,-8.74653e-15,9.54166e-14,,-2.7274,50.4961,,-21.3908,10.6569,
212,76.445,,,95.3276,,,5.42081,0.856094,-82.5527,8.01596,-24.0232,98.8849,-12.027,,,43.3531,,,-24.0506,0.59265,-25.3207,-13.4791,-4.02211,19.6444,64.0915,,,33.0508,,,-7.30076,-9.77759,,-2.71089,7.19406,,-1.42022,17.6839,3.99033,176.583,-10.96,-179.446,1.78906e-14,3.73715e-14,,1.78906e-14,3.73715e-14,,-1.72406,50.3383,,-20.4849,10.5158,
213,76.7782,,,95.4103,,,6.70464,0.0633314,-82.0802,9.00954,-24.1056,98.5293,-12.5647,,,42.693,,,-23.5767,-0.427,-25.6228,-13.7189,-5.2684,19.3618,65.5683,,,33.4814,,,-6.11541,-9.5854,,-2.8234,6.59237,,-1.42175,17.6682,3.93474,176.062,-12.7437,-179.54,7.71285e-14,-1.11319e-14,,7.71285e-14,-1.11319e-14,,-0.937134,50.5425,,-19.3736,10.4285,
214,77.2482,,,95.6085,,,7.27807,-0.742037,-81.7829,9.51652,-23.9596,98.3904,-12.8244,,,41.9118,,,-22.9465,0.826585,-25.5134,-14.4227,-3.93446,19.4425,66.9739,,,33.4505,,,-5.02616,-9.6289,,-3.20532,6.40591,,-1.43789,17.6801,3.83231,175.813,-11.744,-179.541,3.89618e-14,3.18055e-15,,3.89618e-14,3.18055e-15,,-0.220356,50.9999,,-18.3785,10.5682,
215,78.0111,,,96.0568,,,7.39767,-1.72609,-81.7418,9.63584,-23.7744,98.3759,-13.0191,,,41.3009,,,-22.5774,0.528266,-25.8833,-14.9938,-4.25437,18.9949,68.3067,,,33.5936,,,-4.67236,-9.749,,-3.39054,6.10057,,-1.45907,17.6783,3.75661,175.681,-12.3513,-179.739,3.10104e-14,2.46493e-14,,3.10104e-14,2.46493e-14,,-0.213609,51.113,,-17.8224,11.275,
216,78.5756,,,96.5779,,,7.99206,-2.95259,-81.8496,10.0836,-23.7328,98.242,-13.14,,,41.0162,,,-21.8928,0.41798,-26.5113,-15.2201,-4.76818,18.285,69.5063,,,33.7624,,,-5.82508,-10.2552,,-3.56609,5.46305,,-1.47661,17.6708,3.70181,175.278,-13.1797,-180.166,-2.38542e-14,-2.38542e-14,,-2.38542e-14,-2.38542e-14,,-0.256236,50.9019,,-17.3485,11.9993,
217,78.8127,,,96.6679,,,8.87546,-3.99478,-81.7899,10.747,-23.6294,98.0485,-13.9225,,,41.2208,,,-21.5689,0.614556,-26.63,-15.8963,-4.6177,18.1539,70.5897,,,33.9608,,,-6.25045,-10.5875,,-3.76781,5.29677,,-1.49276,17.6623,3.63661,175.07,-13.3549,-180.203,-9.14409e-15,-2.22639e-14,,-9.14409e-15,-2.22639e-14,,-0.240917,50.7545,,-17.9512,13.6156,
218,79.1648,,,96.405,,,9.9152,-4.90428,-81.5572,11.3263,-23.4605,97.9464,-14.8088,,,42.0336,,,-21.4025,0.667436,-26.6484,-16.6787,-4.58467,18.1478,71.4765,,,34.1856,,,-6.69885,-11.0105,,-4.15202,5.28416,,-1.50777,17.6565,3.54991,175.052,-13.6384,-180.169,-1.55052e-14,6.83819e-14,,-1.55052e-14,6.83819e-14,,-0.6516,50.6334,,-18.3024,14.8311,
219,79.5886,,,96.9601,,,10.8317,-6.09662,-81.4315,12.1661,-23.3131,97.7581,-14.6127,,,43.0756,,,-21.067,0.539826,-26.8241,-17.2119,-4.66819,17.9609,72.1702,,,34.4687,,,-7.61114,-11.5751,,-4.64192,5.20955,,-1.5253,17.6546,3.47109,174.901,-14.142,-180.251,-1.63003e-14,-5.56597e-14,,-1.63003e-14,-5.56597e-14,,-0.90554,51.4711,,-17.0705,11.8988,
220,79.8593,,,98.9688,,,10.9039,-7.2737,-81.4399,13.4163,-23.2827,97.3875,-13.8555,,,44.0663,,,-20.5043,0.469933,-26.932,-17.4035,-4.59358,17.7991,72.6547,,,34.6888,,,-8.62954,-11.9728,,-4.96839,5.05923,,-1.55097,17.6525,3.4071,174.469,-14.5433,-180.236,2.94201e-14,-1.27222e-14,,2.94201e-14,-1.27222e-14,,-1.40644,52.5444,,-17.1849,15.1166,
221,80.345,,,99.646,,,12.1505,-7.98038,-81.2683,14.2484,-23.2778,97.1694,-13.4636,,,44.545,,,-20.1242,0.315063,-27.0191,-17.7606,-4.61523,17.692,72.942,,,34.8201,,,-8.50433,-12.2232,,-5.1067,4.5482,,-1.5764,17.647,3.34047,174.274,-15.0933,-180.188,5.12864e-14,0.0,,5.12864e-14,0.0,,-1.90378,53.0158,,-16.6881,12.2558,
222,80.7082,,,99.5901,,,13.4654,-8.43358,-81.2011,15.6095,-23.4154,96.7416,-12.6786,,,44.8086,,,-19.6528,0.254959,-27.3379,-18.0233,-4.62598,17.3379,73.1188,,,34.9037,,,-8.48914,-12.3107,,-5.4691,4.39524,,-1.59259,17.639,3.26819,174.121,-15.6414,-180.399,7.17613e-14,-4.77083e-14,,7.17613e-14,-4.77083e-14,,-2.48187,54.9282,,-18.0447,12.4853,
223,81.1705,,,100.887,,,13.2238,-9.31978,-80.878,15.8287,-23.8554,96.7187,-14.1964,,,44.9336,,,-19.042,-0.208689,-27.6025,-17.8054,-4.99553,17.0254,73.0433,,,34.9918,,,-9.38569,-12.2235,,-5.8172,4.01011,,-1.60628,17.6384,3.1838,173.87,-16.7547,-180.531,4.96962e-15,1.11319e-14,,4.96962e-15,1.11319e-14,,-3.09684,58.5434,,-15.8468,10.5409,
224,81.5279,,,101.774,,,13.0408,-9.36444,-80.266,16.1789,-24.2526,96.6074,-12.8743,,,44.847,,,-18.7166,-0.399915,-27.896,-18.212,-4.68802,16.668,72.9053,,,35.1291,,,-10.1127,-11.9995,,-6.24466,3.84719,,-1.62428,17.6287,3.11847,173.835,-17.2192,-180.743,-2.40529e-14,1.90833e-14,,-2.40529e-14,1.90833e-14,,-3.58132,61.8997,,-16.5506,9.78954,
225,81.6594,,,102.62,,,13.5544,-9.3357,-79.6315,16.8967,-24.7052,96.2925,-11.7891,,,44.6465,,,-18.4703,-0.513205,-27.6023,-18.7712,-4.25121,17.0052,72.4953,,,35.3342,,,-10.1313,-12.0656,,-6.6416,3.43551,,-1.63307,17.6277,3.05564,173.666,-17.7138,-180.45,4.01545e-14,-5.40694e-14,,4.01545e-14,-5.40694e-14,,-4.00031,63.668,,-16.3273,8.63265,
226,81.5939,,,103.188,,,14.5635,-9.21453,-79.0441,18.1021,-25.1665,95.7254,-10.2761,,,44.2909,,,-18.2701,-0.545698,-27.1569,-19.1054,-3.82954,17.5212,71.9218,,,35.5609,,,-10.4183,-12.0388,,-6.91557,2.97507,,-1.63715,17.6283,2.98707,173.428,-18.267,-180.027,-1.31198e-14,-3.33958e-14,,-1.31198e-14,-3.33958e-14,,-3.93744,64.133,,-16.0785,8.05841,
227,81.7424,,,103.725,,,15.5725,-8.92932,-78.371,19.4181,-25.7306,95.0769,-8.56691,,,44.8874,,,-17.9078,-0.640172,-27.1105,-19.0831,-3.49837,17.5749,71.2236,,,35.8133,,,-11.0976,-11.738,,-7.12652,2.70481,,-1.64326,17.6233,2.91547,173.154,-18.9021,-179.951,-6.12257e-14,5.56597e-14,,-6.12257e-14,5.56597e-14,,-4.97611,64.3625,,-15.7197,7.71445,
228,81.4796,,,104.205,,,16.3971,-8.48102,-77.5641,20.6545,-25.9705,94.5909,-7.03681,,,44.8917,,,-17.4277,-0.726503,-27.3784,-18.9912,-3.26919,17.2692,70.44,,,36.0335,,,-11.7762,-11.252,,-7.36156,2.34998,,-1.65016,17.6222,2.84538,172.922,-19.6431,-180.16,5.60573e-14,1.11319e-14,,5.60573e-14,1.11319e-14,,-3.5003,66.3727,,-15.3122,8.02699,
229,81.5914,,,104.746,,,16.5482,-7.23347,-76.6613,21.0235,-25.9741,94.3265,-5.41128,,,46.262,,,-17.3647,-0.693903,-27.2371,-19.3183,-2.81941,17.3886,69.5685,,,36.2796,,,-12.6215,-10.8523,,-7.72428,2.00606,,-1.65946,17.621,2.77688,172.914,-20.1643,-180.006,3.37934e-14,1.74931e-14,,3.37934e-14,1.74931e-14,,-4.29597,66.9278,,-14.7126,7.70309,
230,81.6554,,,105.0,,,17.4881,-6.66281,-75.8376,22.351,-26.586,93.6431,-3.70939,,,47.2993,,,-17.1025,-0.736979,-27.3513,-19.4253,-2.50848,17.1711,68.6372,,,36.5061,,,-13.5571,-10.3801,,-8.15209,1.7046,,-1.67248,17.6055,2.70407,172.841,-20.7742,-180.072,-5.36719e-15,-3.97569e-14,,-5.36719e-15,-3.97569e-14,,-4.98984,67.3708,,-14.1348,7.0701,
231,81.6928,,,105.121,,,18.2664,-5.91888,-74.8779,23.3518,-27.0835,93.2093,-1.79455,,,48.0323,,,-16.8945,-0.988696,-27.565,-19.4662,-2.28821,16.8951,67.6539,,,36.7589,,,-14.2514,-9.92896,,-8.51127,1.46143,,-1.67963,17.5865,2.64077,172.771,-21.5218,-180.213,-6.30147e-14,6.91771e-14,,-6.30147e-14,6.91771e-14,,-5.98599,68.3391,,-14.1904,8.08014,
232,81.7576,,,105.262,,,18.6286,-4.8468,-73.917,23.9158,-27.3225,93.1059,0.0825998,,,48.2701,,,-16.6884,-1.1882,-27.7358,-19.4323,-1.97384,16.7038,66.5542,,,37.0155,,,-14.7532,-9.63463,,-8.90682,1.11758,,-1.68609,17.5808,2.58103,172.695,-22.2369,-180.333,3.1408e-14,-1.11319e-13,,3.1408e-14,-1.11319e-13,,-6.20348,70.2655,,-14.2221,8.72956,
233,81.563,,,105.523,,,18.9514,-3.60003,-73.0026,24.5616,-27.4937,92.9889,1.73272,,,48.8459,,,-16.4075,-1.01006,-27.8138,-19.3299,-1.36281,16.5875,65.3711,,,37.3314,,,-15.9298,-10.6809,,-9.44206,0.511357,,-1.69223,17.5792,2.51157,172.589,-22.756,-180.428,5.01931e-14,-2.54444e-14,,5.01931e-14,-2.54444e-14,,-6.82844,71.5062,,-13.879,7.73519,
234,81.4954,,,105.904,,,19.3557,-2.40305,-71.9742,25.1032,-27.7739,92.7973,3.03856,,,49.4146,,,-16.3409,-0.789869,-27.4989,-19.4453,-0.619031,16.8598,64.1389,,,37.6672,,,-16.1888,-9.54034,,-9.83961,0.00870235,,-1.69632,17.5697,2.44712,172.47,-23.093,-180.165,7.82218e-14,-4.13472e-14,,7.82218e-14,-4.13472e-14,,-8.21098,71.5734,,-12.9987,5.57997,
235,81.7617,,,106.306,,,19.917,-1.43067,-70.8246,25.7776,-28.283,92.5086,4.08716,,,49.9105,,,-16.57,-0.694891,-27.6298,-19.8075,-0.194405,16.6231,63.0028,,,38.0656,,,-16.8638,-9.28477,,-10.1522,-0.420634,,-1.70079,17.5402,2.39167,172.638,-23.5717,-180.29,-4.57205e-14,4.05521e-14,,-4.57205e-14,4.05521e-14,,-9.64826,71.697,,-13.1405,6.44649,
236,81.6889,,,106.409,,,20.8125,-0.365266,-69.7142,26.8009,-28.6167,92.0972,5.38279,,,50.402,,,-16.69,-0.743643,-27.9592,-19.9928,0.0247771,16.1294,61.7759,,,38.4793,,,-17.4709,-9.42633,,-10.5365,-0.793749,,-1.71075,17.5225,2.32987,172.859,-24.1823,-180.588,-2.89232e-14,4.92986e-14,,-2.89232e-14,4.92986e-14,,-10.4831,71.817,,-10.2558,3.05831,
237,81.4319,,,106.273,,,21.6125,1.1355,-68.8137,27.478,-28.5049,91.8689,7.09776,,,50.8138,,,-16.5668,-0.778576,-27.8452,-19.999,0.646748,16.1038,60.5024,,,38.8467,,,-17.8116,-9.12609,,-10.9322,-1.12024,,-1.71465,17.5075,2.26751,172.747,-24.6608,-180.505,3.89618e-14,-3.89618e-14,,3.89618e-14,-3.89618e-14,,-10.8238,72.5156,,-9.52521,2.95095,
238,81.1562,,,106.179,,,21.9776,1.64362,-67.979,28.3799,-29.4734,91.3947,9.42087,,,51.1081,,,-16.347,-0.649505,-27.2407,-19.8801,1.53389,16.5826,59.0969,,,39.0779,,,-18.1102,-8.03984,,-11.1952,-1.58495,,-1.71379,17.5076,2.20474,172.376,-25.0823,-179.98,-2.28602e-14,1.35174e-14,,-2.28602e-14,1.35174e-14,,-10.9975,73.9413,,-8.05207,2.50197,
239,80.9895,,,106.073,,,22.7842,2.59352,-67.0839,29.6845,-30.0347,90.6085,11.8018,,,51.2936,,,-16.1017,-0.317155,-27.1746,-19.8524,2.207,16.4209,57.719,,,39.2316,,,-18.5359,-6.73407,,-11.4902,-2.10655,,-1.71934,17.502,2.13887,172.282,-25.3921,-179.999,3.39922e-14,-5.48646e-14,,3.39922e-14,-5.48646e-14,,-11.2406,75.5029,,-7.33737,0.16661,
240,81.253,,,105.068,,,23.6634,2.95729,-66.4043,31.4507,-30.8939,89.1536,14.3038,,,51.4393,,,-15.8044,-0.191148,-27.5121,-19.7676,2.69418,15.8313,56.3458,,,39.3446,,,-18.9823,-5.67673,,-11.8217,-2.43621,,-1.72908,17.5006,2.07188,172.372,-25.8103,-180.39,-1.42131e-14,1.35174e-14,,-1.42131e-14,1.35174e-14,,-11.7059,76.9737,,-9.99582,1.65441,
241,80.9083,,,104.714,,,23.1398,3.77133,-66.4258,31.005,-31.7046,88.6592,15.2684,,,50.4639,,,-15.675,-0.193937,-27.5441,-19.7166,3.28147,15.6048,54.9703,,,39.4542,,,-19.2059,-4.97152,,-12.0592,-2.75008,,-1.73738,17.507,2.01785,172.401,-26.2835,-180.461,-4.94974e-14,3.26007e-14,,-4.94974e-14,3.26007e-14,,-13.3558,74.5844,,-10.9944,1.51264,
242,80.5046,,,104.175,,,23.0521,4.26426,-66.1918,31.1244,-32.4585,88.2256,15.9155,,,49.4573,,,-15.5399,-0.100972,-27.0545,-19.6249,4.04197,15.9698,53.6532,,,39.6038,,,-19.1756,-4.6389,,-12.2836,-3.1932,,-1.73755,17.5062,1.9605,172.193,-26.5961,-180.058,9.45221e-14,1.59028e-15,,9.45221e-14,1.59028e-15,,-13.8655,73.6189,,-12.0964,1.76459,
243,80.0348,,,103.394,,,23.4781,4.44523,-65.8736,31.8567,-32.9322,87.7328,16.6157,,,49.1498,,,-15.2037,0.0227654,-26.5338,-19.3067,4.82589,16.403,52.4387,,,39.7757,,,-19.194,-4.53109,,-12.6004,-3.66513,,-1.7309,17.5021,1.89167,171.813,-26.9011,-179.67,-2.23633e-15,5.56597e-14,,-2.23633e-15,5.56597e-14,,-14.0265,73.2743,,-13.4639,2.41442,
244,79.5879,,,102.825,,,23.7242,4.51895,-65.8166,32.2514,-33.1114,87.5084,16.7433,,,49.9259,,,-14.8637,0.0226792,-26.5474,-19.0621,5.2787,16.2041,51.4294,,,39.9578,,,-19.4445,-3.92894,,-12.8418,-4.08114,,-1.72966,17.4929,1.82742,171.65,-27.3716,-179.773,-2.08724e-15,-1.19271e-14,,-2.08724e-15,-1.19271e-14,,-14.5728,72.796,,-15.6422,3.71483,
245,79.2682,,,102.544,,,23.9555,4.46472,-65.8749,32.3195,-33.078,87.6412,16.379,,,51.133,,,-14.6175,0.0859428,-26.8629,-19.0011,5.53396,15.649,50.6047,,,40.0972,,,-19.5623,-3.10429,,-13.0805,-4.48868,,-1.73435,17.4811,1.77056,171.724,-27.8138,-180.137,5.34731e-14,-1.03368e-14,,5.34731e-14,-1.03368e-14,,-14.7694,74.7951,,-16.516,4.26085,
246,79.0245,,,102.353,,,24.2166,4.372,-65.6747,32.4121,-33.1105,87.8042,16.3366,,,51.8862,,,-14.3849,0.248521,-26.9002,-18.98,6.10878,15.4639,49.9613,,,40.2348,,,-19.5395,-2.6717,,-13.5706,-4.6572,,-1.73408,17.4653,1.71902,171.643,-27.9638,-180.247,-1.14798e-14,-1.43125e-14,,-1.14798e-14,-1.43125e-14,,-16.4084,70.6344,,-17.1202,4.46735,
247,78.6752,,,102.195,,,24.836,4.10177,-65.1519,33.2274,-33.3035,87.6989,16.5949,,,52.1917,,,-14.2196,0.146417,-26.7862,-18.9712,6.55896,15.4428,49.4809,,,40.3768,,,-19.6407,-2.14673,,-14.0215,-4.77054,,-1.73028,17.459,1.66098,171.571,-28.4317,-180.211,5.37216e-14,3.97569e-15,,5.37216e-14,3.97569e-15,,-15.8276,73.0832,,-17.7296,4.38956,
248,78.473,,,102.001,,,26.2362,3.25007,-64.2298,35.0279,-33.7216,87.4559,17.1471,,,52.2821,,,-14.1469,0.000549139,-26.9605,-19.0842,6.82983,15.1266,49.1621,,,40.5673,,,-19.6389,-1.48084,,-14.3138,-4.74498,,-1.73381,17.4433,1.61262,171.67,-28.8855,-180.4,4.47762e-14,-5.00937e-14,,4.47762e-14,-5.00937e-14,,-16.4544,71.1821,,-18.2685,3.98064,
249,78.5122,,,101.663,,,27.167,3.0282,-63.7723,35.7512,-33.8625,87.2805,17.9278,,,52.1275,,,-14.0764,-0.143566,-27.3722,-19.1814,6.80149,14.598,48.9678,,,40.8184,,,-19.7093,-1.20185,,-14.6396,-4.77257,,-1.7419,17.4209,1.56902,171.821,-29.2807,-180.795,1.73937e-14,-1.98785e-14,,1.73937e-14,-1.98785e-14,,-16.838,69.9357,,-19.0219,4.33508,
250,78.581,,,101.162,,,28.2074,3.61403,-63.2868,36.0075,-33.2739,87.3394,18.4977,,,51.8098,,,-13.8383,-0.464569,-27.3397,-19.0311,6.78862,14.5435,48.8006,,,41.1426,,,-19.7155,-1.18969,,-14.9918,-5.07176,,-1.74167,17.4083,1.50961,171.675,-29.795,-180.826,-7.10655e-15,1.66979e-14,,-7.10655e-15,1.66979e-14,,-17.2246,68.9695,,-20.288,5.86348,
251,78.5073,,,101.383,,,28.88,3.61262,-62.8098,36.5145,-33.4865,87.077,18.3881,,,51.5906,,,-13.67,-0.565068,-27.0663,-18.8676,7.11009,14.7565,48.6577,,,41.5447,,,-19.4489,-1.27717,,-15.3613,-5.41038,,-1.73231,17.3892,1.44917,171.431,-30.1401,-180.685,-7.4743e-14,4.77083e-15,,-7.4743e-14,4.77083e-15,,-17.4233,67.8518,,-19.7891,4.8385,
252,78.6302,,,100.666,,,29.2493,3.60745,-62.6552,36.5132,-33.5565,86.9855,19.9757,,,52.575,,,-13.5662,-0.512129,-26.7652,-18.6255,7.29287,15.0451,48.5018,,,42.0185,,,-19.2446,-1.73274,,-15.8261,-5.69594,,-1.73042,17.3687,1.39659,171.149,-30.4384,-180.466,-1.49089e-16,-3.97569e-14,,-1.49089e-16,-3.97569e-14,,-18.9251,65.6414,,-20.4774,6.19876,
253,78.2837,,,100.984,,,29.9377,3.89783,-61.9448,37.0371,-33.1765,87.1367,20.7127,,,52.3782,,,-13.5574,-0.545338,-26.7373,-18.4744,6.97814,15.0249,48.4476,,,42.5286,,,-19.0762,-2.03607,,-16.326,-6.01023,,-1.73466,17.3466,1.3485,171.059,-30.8655,-180.483,9.92432e-14,-3.18055e-15,,9.92432e-14,-3.18055e-15,,-18.067,65.0068,,-16.9476,1.70644,
254,78.3826,,,100.535,,,30.8128,3.42581,-61.6289,38.1859,-33.1531,86.6803,22.6745,,,53.8734,,,-13.4983,-0.459096,-26.4612,-18.2248,6.68602,15.2514,48.5373,,,43.0102,,,-18.8671,-1.9986,,-16.7761,-6.43012,,-1.73348,17.325,1.29272,170.798,-31.2304,-180.29,-7.83709e-14,1.98785e-14,,-7.83709e-14,1.98785e-14,,-19.4029,63.802,,-10.5592,-2.46133,
255,77.6456,,,100.466,,,31.6731,3.53329,-61.1943,38.8532,-32.6698,86.6058,23.7917,,,52.7294,,,-13.4466,-0.183,-26.1099,-17.9782,6.64094,15.6165,48.8523,,,43.4547,,,-18.8198,-2.33729,,-17.1814,-6.7912,,-1.73128,17.3016,1.23396,170.54,-31.4196,-180.07,1.39149e-14,-6.04305e-14,,1.39149e-14,-6.04305e-14,,-17.5576,63.7313,,-1.09198,-8.81996,
256,77.6843,,,100.501,,,31.8667,3.46463,-60.9758,38.9494,-32.9152,86.3275,24.0563,,,53.1101,,,-13.5002,-0.0757542,-26.4023,-17.884,6.19567,15.4004,49.3551,,,43.8978,,,-18.9224,-3.09447,,-17.5904,-6.97486,,-1.73554,17.2771,1.18484,170.696,-31.7832,-180.42,7.23079e-14,3.97569e-15,,7.23079e-14,3.97569e-15,,-18.1626,62.5759,,8.22093,-14.5947,
257,77.4412,,,100.436,,,32.2209,3.88678,-60.6826,39.4335,-32.7217,85.8344,24.0611,,,52.6734,,,-13.6474,-0.16676,-26.9541,-17.9126,5.33601,14.8731,49.9538,,,44.3943,,,-19.3007,-3.37024,,-17.9939,-7.10009,,-1.73812,17.2434,1.14369,171.006,-32.3242,-180.995,9.42612e-14,1.66979e-14,,9.42612e-14,1.66979e-14,,-17.7801,61.6801,,14.4887,-18.4353,
258,77.2602,,,100.683,,,33.6304,3.63986,-59.611,40.8646,-32.5151,85.4426,23.882,,,52.2792,,,-13.7474,-0.102631,-26.7008,-17.8921,4.84002,15.1188,50.5314,,,44.9411,,,-19.9317,-3.04112,,-18.424,-7.34692,,-1.73352,17.2129,1.09665,170.854,-32.6047,-180.841,-2.53823e-14,-5.00937e-14,,-2.53823e-14,-5.00937e-14,,-17.5491,60.2714,,17.1629,-20.6681,
259,77.0219,,,100.598,,,34.5321,3.3144,-59.026,41.8077,-32.3907,85.1574,24.6756,,,51.9069,,,-13.6612,0.193277,-25.8904,-17.6165,4.72169,15.9893,50.9949,,,45.5144,,,-20.3838,-2.83753,,-18.7801,-7.9153,,-1.72448,17.1891,1.03855,170.27,-32.6175,-180.195,4.5472e-15,-3.49861e-14,,4.5472e-15,-3.49861e-14,,-17.2854,58.9562,,16.0943,-18.2114,
260,76.7971,,,100.715,,,35.3435,3.02283,-58.3909,42.8518,-32.3397,84.8262,25.3155,,,51.6124,,,-13.5175,0.377377,-25.7412,-17.2996,4.5171,16.1703,51.3874,,,46.0809,,,-20.8543,-2.97731,,-19.2817,-8.06438,,-1.72411,17.161,0.977844,170.064,-32.74,-180.211,-1.69091e-14,-2.06736e-14,,-1.69091e-14,-2.06736e-14,,-17.0503,57.7556,,14.4115,-16.4135,
261,76.6981,,,100.967,,,36.2764,2.90772,-57.806,43.7608,-32.1124,84.5248,24.9828,,,51.3673,,,-13.48,0.284416,-25.8512,-17.1088,4.33376,16.0481,51.7447,,,46.6096,,,-21.4608,-3.17426,,-19.5841,-8.57115,,-1.72721,17.1345,0.919715,170.13,-33.0963,-180.45,1.23669e-13,-2.06736e-14,,1.23669e-13,-2.06736e-14,,-17.134,56.344,,12.8448,-15.2494,
262,76.5684,,,100.584,,,37.0256,2.78266,-57.4862,44.4424,-31.7823,84.3261,25.7542,,,50.7524,,,-13.5053,0.431338,-25.6428,-17.014,4.52448,16.2701,52.1906,,,47.1807,,,-21.705,-3.39288,,-19.7873,-8.99937,,-1.72608,17.1056,0.867441,169.981,-33.1762,-180.372,6.38906e-14,-2.8625e-14,,6.38906e-14,-2.8625e-14,,-16.9256,55.1913,,10.134,-11.9107,
263,76.2984,,,100.772,,,38.8346,2.63132,-56.8738,45.9147,-30.9263,83.8172,26.3093,,,50.1305,,,-13.4942,0.723228,-25.4125,-16.8906,4.72519,16.5286,52.7678,,,47.7969,,,-21.9177,-4.03322,,-20.0715,-9.42921,,-1.72169,17.0717,0.807496,169.749,-33.2602,-180.299,4.52359e-14,-1.51076e-14,,4.52359e-14,-1.51076e-14,,-16.6077,54.1494,,10.134,-11.9107,
264,76.1154,,,100.776,,,39.3798,2.64853,-56.1558,46.3603,-30.6801,83.6844,28.6849,,,49.6493,,,-13.5673,0.876775,-25.3742,-17.0095,4.5982,16.5592,53.5058,,,48.4461,,,-22.1906,-4.55081,,-20.4764,-9.66784,,-1.71907,17.0271,0.754182,169.689,-33.3497,-180.394,-4.66212e-15,-2.62396e-14,,-4.66212e-15,-2.62396e-14,,-16.5598,53.1246,,10.134,-11.9107,
265,76.0511,,,100.991,,,40.4646,2.22632,-55.5752,47.3694,-30.3946,83.2672,29.4203,,,48.9377,,,-13.7321,0.953391,-25.1433,-17.4042,4.6567,16.7793,54.3474,,,49.1066,,,-22.4322,-4.57424,,-20.9118,-9.84139,,-1.71564,16.9918,0.709993,169.608,-33.2549,-180.3,-4.55372e-14,1.27222e-14,,-4.55372e-14,1.27222e-14,,-16.2519,52.1859,,10.134,-11.9107,
266,76.1724,,,100.558,,,41.6915,1.74855,-55.1242,48.425,-30.0619,83.134,29.2508,,,47.9394,,,-13.8041,0.994736,-25.0953,-17.7262,4.79828,16.8695,55.1781,,,49.69,,,-22.8001,-4.43033,,-21.3365,-9.77496,,-1.71646,16.9708,0.657878,169.579,-33.1718,-180.364,-1.82758e-14,1.51076e-14,,-1.82758e-14,1.51076e-14,,-15.6625,51.3859,,10.134,-11.9107,
267,76.2219,,,100.118,,,42.4501,1.48026,-54.8031,49.3243,-29.737,82.9997,29.0076,,,47.2373,,,-13.7945,1.23471,-25.2653,-17.8547,4.73356,16.7937,55.9826,,,50.1671,,,-23.2779,-4.59634,,-21.7104,-9.47178,,-1.71846,16.9183,0.597359,169.602,-33.0577,-180.632,-1.28589e-15,-2.54444e-14,,-1.28589e-15,-2.54444e-14,,-15.2447,50.7028,,10.134,-11.9107,
268,76.2067,,,99.7481,,,42.7809,1.23094,-54.5608,49.6646,-29.5739,82.8756,29.8721,,,46.5938,,,-13.4708,1.5422,-26.0888,-17.665,4.50635,16.045,56.7974,,,50.5731,,,-23.9342,-4.55816,,-22.1596,-8.93602,,-1.72689,16.8483,0.531452,169.748,-33.0536,-181.538,9.50532e-14,5.56597e-15,,9.50532e-14,5.56597e-15,,-14.9691,49.9812,,10.134,-11.9107,
269,76.1637,,,99.3355,,,43.9111,0.935667,-54.2513,50.5014,-28.8428,82.5732,30.6153,,,45.9294,,,-12.5091,1.50834,-27.366,-16.8397,4.05852,14.7974,57.5735,,,50.9234,,,-24.8028,-4.38539,,-22.7213,-8.54952,,-1.73878,16.8025,0.449926,169.782,-33.5587,-182.921,1.45423e-14,1.43125e-14,,1.45423e-14,1.43125e-14,,-14.7442,49.1307,,10.134,-11.9107,
270,76.1999,,,99.2641,,,44.4859,0.706474,-53.9197,51.0156,-28.3725,82.4759,30.5715,,,45.3367,,,-12.4325,1.48585,-28.0355,-16.8904,3.70562,14.1196,58.39,,,51.4555,,,-25.3949,-4.36804,,-23.0033,-8.10249,,-1.74891,16.7457,0.397408,170.015,-33.6498,-183.639,-6.66301e-14,1.98785e-14,,-6.66301e-14,1.98785e-14,,-14.5915,48.6031,,10.134,-11.9107,
271,76.4935,,,99.0794,,,45.5867,0.289153,-53.5729,52.0037,-27.7535,82.1719,30.5282,,,44.9684,,,-12.6301,1.63157,-27.7906,-17.0484,3.59681,14.394,59.1142,,,52.1617,,,-25.811,-4.90744,,-23.3061,-7.90954,,-1.74599,16.6874,0.34976,169.868,-33.5276,-183.5,-5.31501e-14,-1.59028e-15,,-5.31501e-14,-1.59028e-15,,-14.1983,48.589,,10.134,-11.9107,
272,76.858,,,98.4606,,,46.5474,-0.483468,-53.2561,52.8056,-27.4171,82.0921,31.2162,,,44.741,,,-12.7561,1.61204,-27.7392,-17.0549,3.33138,14.4651,59.8002,,,53.0174,,,-26.1835,-5.11696,,-23.5395,-8.03464,,-1.74159,16.6416,0.301766,169.678,-33.7113,-183.512,-5.02552e-15,-3.49861e-14,,-5.02552e-15,-3.49861e-14,,-13.4986,48.8306,,10.134,-11.9107,
273,77.0609,,,98.2494,,,47.318,-0.884574,-52.8531,53.3725,-26.9953,82.0731,31.0599,,,44.8006,,,-12.9652,1.73239,-27.6965,-17.0919,3.17895,14.5495,60.4836,,,53.9785,,,-26.6945,-5.07605,,-23.9649,-7.91549,,-1.74337,16.5981,0.246779,169.555,-33.748,-183.54,1.49337e-14,-1.74931e-14,,1.49337e-14,-1.74931e-14,,-12.4253,48.8628,,10.134,-11.9107,
274,77.1163,,,97.5532,,,47.88,-1.23562,-52.6592,53.7975,-26.5584,82.1018,31.8189,,,45.2951,,,-13.1467,1.86952,-27.0549,-17.0238,3.10606,15.3061,61.1468,,,54.9477,,,-27.127,-5.2443,,-24.4162,-7.89098,,-1.744,16.5509,0.184551,169.098,-33.5918,-182.987,5.31252e-14,-2.3059e-14,,5.31252e-14,-2.3059e-14,,-10.9176,48.3839,,10.134,-11.9107,
275,77.1826,,,97.2338,,,48.2767,-1.58619,-52.4132,54.2279,-26.2555,82.0556,31.7956,,,46.016,,,-13.4987,2.05145,-26.6732,-17.386,2.98168,15.7737,61.9385,,,55.957,,,-27.1283,-5.03731,,-24.8072,-7.79764,,-1.74494,16.4867,0.138657,168.85,-33.2566,-182.654,-1.60022e-14,3.73715e-14,,-1.60022e-14,3.73715e-14,,-10.1224,47.7339,,10.134,-11.9107,
276,77.3207,,,96.9296,,,48.6439,-2.12902,-52.0475,54.7628,-26.0031,82.0839,32.0368,,,46.9113,,,-13.4887,1.91609,-26.6533,-17.4851,2.59188,15.8356,62.7266,,,56.8725,,,-27.1274,-5.04376,,-25.1903,-7.92958,,-1.74263,16.4285,0.0794745,168.67,-33.4255,-182.709,1.10996e-13,1.43125e-14,,1.10996e-13,1.43125e-14,,-9.18827,48.2601,,10.134,-11.9107,
277,77.5248,,,96.5494,,,49.2069,-2.82325,-51.5406,55.5138,-25.72,82.1057,32.713,,,48.0821,,,-13.5186,1.96466,-26.191,-17.4966,2.52031,16.3489,63.5019,,,57.8391,,,-27.4078,-5.17395,,-25.4727,-8.14678,,-1.73904,16.371,0.018053,168.259,-33.3855,-182.363,7.83957e-14,2.46493e-14,,7.83957e-14,2.46493e-14,,-8.42327,48.1665,,10.134,-11.9107,
278,77.8024,,,96.3658,,,50.1436,-3.43195,-51.0037,56.4038,-25.2177,81.9935,32.8527,,,49.6003,,,-13.6224,2.11479,-25.5258,-17.3607,2.44151,17.0631,64.2277,,,58.8384,,,-27.8546,-5.57964,,-25.7904,-8.33052,,-1.73345,16.3174,-0.048669,167.762,-33.3193,-181.847,1.16488e-13,-1.35174e-14,,1.16488e-13,-1.35174e-14,,-7.71586,48.1838,,10.134,-11.9107,
279,77.9424,,,96.1692,,,50.5057,-3.66485,-50.7172,56.6868,-24.912,82.0668,33.0853,,,51.3732,,,-13.8971,2.12852,-25.3479,-17.3931,2.06738,17.223,64.9759,,,59.8821,,,-28.3461,-5.55145,,-26.1896,-8.51746,,-1.73388,16.2633,-0.104114,167.613,-33.4315,-181.745,-3.66261e-14,-7.95139e-15,,-3.66261e-14,-7.95139e-15,,-7.46027,48.4701,,10.134,-11.9107,
280,78.0867,,,96.0665,,,50.5721,-3.8494,-50.469,56.725,-24.8282,82.1038,33.2708,,,53.3467,,,-14.2293,2.13036,-25.0639,-17.5356,1.73705,17.5241,65.7578,,,60.9755,,,-28.7451,-5.73481,,-26.4879,-8.62037,,-1.7313,16.1983,-0.150225,167.38,-33.4338,-181.515,3.33213e-14,1.90833e-14,,3.33213e-14,1.90833e-14,,-7.32177,48.7046,,10.134,-11.9107,
281,78.3872,,,95.9043,,,50.4707,-4.20198,-50.1775,56.7565,-24.9441,82.086,33.4601,,,55.4188,,,-14.4471,2.24881,-24.5626,-17.6073,1.60542,18.0246,66.5509,,,62.0198,,,-29.1008,-5.8038,,-26.8924,-8.4995,,-1.72504,16.1314,-0.201918,166.975,-33.3446,-181.136,-2.28602e-15,-1.27222e-14,,-2.28602e-15,-1.27222e-14,,-6.92768,48.8246,,10.134,-11.9107,
282,78.7343,,,95.6366,,,50.0693,-4.58176,-49.664,56.7544,-25.2583,82.2458,33.7249,,,57.4895,,,-14.6052,2.42616,-24.3241,-17.7271,1.52192,18.1958,67.3277,,,62.928,,,-29.5473,-5.55231,,-27.4404,-8.3636,,-1.7251,16.0721,-0.255093,166.796,-33.3482,-181.033,2.19409e-14,5.08889e-14,,2.19409e-14,5.08889e-14,,-6.74803,49.1021,,10.134,-11.9107,
283,78.7318,,,95.4363,,,50.2776,-5.06309,-49.2257,57.0972,-25.2724,82.3623,34.2035,,,58.8275,,,-14.9431,2.44958,-24.5539,-18.0828,1.27358,17.9191,68.1838,,,63.8611,,,-30.1467,-5.24743,,-27.7452,-8.50063,,-1.73169,16.0144,-0.295292,166.997,-33.4892,-181.316,1.11121e-13,-1.82882e-14,,1.11121e-13,-1.82882e-14,,-6.64207,49.1539,,-38.6212,16.1399,
284,78.9919,,,95.4347,,,49.7962,-4.83039,-49.0852,56.6206,-25.3381,82.3286,34.5283,,,59.3151,,,-15.4394,2.31485,-25.0342,-18.4723,0.874575,17.4687,68.8389,,,64.9052,,,-30.3923,-5.08908,,-27.9842,-8.27376,,-1.74513,15.962,-0.324353,167.349,-33.7386,-181.728,-4.15957e-14,1.70955e-14,,-4.15957e-14,1.70955e-14,,-6.89037,49.6509,,-38.2559,16.3634,
285,79.4346,,,95.5116,,,49.5788,-4.98967,-48.5562,56.5978,-25.5572,82.2375,34.8256,,,59.128,,,-15.7304,2.59909,-24.0689,-18.4712,0.237411,18.3857,69.5436,,,66.3722,,,-30.5577,-5.18935,,-28.496,-7.52553,,-1.72962,15.8621,-0.395159,166.593,-33.6536,-180.915,1.44119e-14,1.03368e-14,,1.44119e-14,1.03368e-14,,-7.0192,50.2609,,-38.1458,16.3366,
286,79.7888,,,95.6992,,,49.6569,-5.07993,-48.1061,56.624,-25.5986,82.1023,35.2393,,,58.6025,,,-14.8931,3.85258,-18.699,-16.729,1.2827,23.8955,69.5281,,,68.0434,,,-30.4768,-7.49435,,-29.2818,-7.37416,,-1.68533,15.8164,-0.520983,162.819,-32.3386,-176.4,-8.17502e-14,-2.78299e-15,,-8.17502e-14,-2.78299e-15,,-7.20639,50.7024,,-37.7923,16.2051,
287,80.136,,,95.8493,,,50.2664,-5.28873,-47.7398,57.2066,-25.2939,81.5365,35.2757,,,58.3253,,,-14.7247,4.57995,-16.3548,-16.0895,1.61477,26.1959,69.921,,,69.5335,,,-30.3853,-8.72373,,-29.8161,-7.33292,,-1.66401,15.7541,-0.593781,161.244,-31.6792,-174.643,7.55382e-15,1.19271e-15,,7.55382e-15,1.19271e-15,,-7.60304,50.98,,-37.0556,16.3617,
288,80.5291,,,95.9275,,,50.6247,-5.59886,-47.262,57.8983,-25.2602,80.8665,35.1088,,,58.0831,,,-15.217,4.89927,-16.1531,-16.3995,1.48927,26.292,70.5124,,,70.7324,,,-30.476,-8.73871,,-30.0879,-7.77013,,-1.66256,15.6988,-0.636591,161.306,-31.679,-174.651,1.20116e-13,-3.29983e-14,,1.20116e-13,-3.29983e-14,,-8.04653,51.4277,,-36.8847,16.5915,
289,80.8702,,,96.1026,,,50.6718,-5.69697,-46.8456,58.2773,-25.3764,80.3689,35.1996,,,57.8935,,,-15.4355,4.97824,-16.085,-16.4693,1.1523,26.2341,71.2806,,,71.7412,,,-30.9442,-8.64602,,-30.3307,-8.36456,,-1.66192,15.647,-0.689325,161.251,-31.9347,-174.755,2.26615e-14,2.38542e-14,,2.26615e-14,2.38542e-14,,-8.67372,51.9895,,-37.358,16.4448,
290,81.0695,,,96.2949,,,50.6373,-5.89981,-46.4484,58.686,-25.5036,79.8806,35.5549,,,57.9418,,,-15.5859,5.1728,-15.751,-16.5371,1.08997,26.4519,72.0848,,,72.6735,,,-31.2089,-8.63898,,-30.5021,-8.73695,,-1.65707,15.5952,-0.743194,161.039,-31.9631,-174.672,4.6118e-14,2.42517e-14,,4.6118e-14,2.42517e-14,,-9.15243,52.2572,,-37.3902,16.3168,
291,81.2181,,,96.3323,,,50.4915,-6.151,-46.0082,59.0261,-25.6682,79.4501,35.9329,,,58.0246,,,-15.9464,5.55801,-15.3795,-16.8455,1.26081,26.7113,72.9072,,,73.6425,,,-31.2231,-8.53706,,-30.6493,-9.07069,,-1.64826,15.5365,-0.787073,160.973,-31.8173,-174.618,3.97569e-16,1.47101e-14,,3.97569e-16,1.47101e-14,,-9.55306,52.4296,,-36.8224,16.3348,
